;FLAVOR:Marlin
;TIME:12375
;Filament used: 9.47984m
;Layer height: 0.2
;MINX:76.545
;MINY:84.699
;MINZ:0.24
;MAXX:158.443
;MAXY:151.161
;MAXZ:11.03
;Generated with Cura_SteamEngine 4.10.0
M140 S60
M105
M190 S60
M104 S230
M105
M109 S230
M82 ;absolute extrusion mode
; Ender 3 Custom Start G-code
G92 E0 ; Reset Extruder
G28 ; Home all axes
G1 Z2.0 F3000 ; Move Z Axis up little to prevent scratching of Heat Bed
G1 X0.1 Y20 Z0.3 F5000.0 ; Move to start position
G1 X0.1 Y200.0 Z0.3 F1500.0 E15 ; Draw the first line
G1 X0.4 Y200.0 Z0.3 F5000.0 ; Move to side a little
G1 X0.4 Y20 Z0.3 F1500.0 E30 ; Draw the second line
G92 E0 ; Reset Extruder
G1 Z2.0 F3000 ; Move Z Axis up little to prevent scratching of Heat Bed
G1 X5 Y20 Z0.3 F5000.0 ; Move over to prevent blob squish
G92 E0
G92 E0
G1 F2400 E-6
;LAYER_COUNT:50
;LAYER:-5
M106 S63.8
G0 F9000 X79.891 Y86.952 Z0.24
;TYPE:SUPPORT-INTERFACE
G1 F2400 E0
G1 F1350 X80.175 Y86.691 E0.03079
G1 X80.436 Y86.477 E0.05773
G1 X80.672 Y86.308 E0.0809
G1 X81.002 Y86.076 E0.1131
G1 X81.229 Y85.939 E0.13427
G1 X81.283 Y85.907 E0.13928
G1 X81.627 Y85.717 E0.17065
G1 X81.954 Y85.559 E0.19964
G1 X82.2 Y85.45 E0.22112
G1 X82.378 Y85.382 E0.23633
G1 X82.718 Y85.263 E0.26508
G1 X83.016 Y85.174 E0.28991
G1 X83.386 Y85.081 E0.32036
G1 X83.696 Y85.019 E0.3456
G1 X84.108 Y84.957 E0.37885
G1 X84.408 Y84.927 E0.40292
G1 X84.791 Y84.905 E0.43354
G1 X85.026 Y84.9 E0.45231
G1 X153.577 Y84.9 E5.92434
G1 X153.787 Y84.908 E5.94112
G1 X154.042 Y84.926 E5.96152
G1 X154.352 Y84.97 E5.98652
G1 X154.537 Y85.01 E6.00163
G1 X154.857 Y85.103 E6.02823
G1 X155.016 Y85.161 E6.04174
G1 X155.313 Y85.295 E6.06775
G1 X155.484 Y85.388 E6.08328
G1 X155.76 Y85.562 E6.10933
G1 X155.915 Y85.678 E6.12478
G1 X156.146 Y85.87 E6.14876
G1 X156.401 Y86.127 E6.17766
G1 X156.583 Y86.336 E6.19978
G1 X156.779 Y86.596 E6.22577
G1 X156.876 Y86.748 E6.24017
G1 X157.035 Y87.037 E6.2665
G1 X157.11 Y87.2 E6.28082
G1 X157.223 Y87.497 E6.30618
G1 X157.274 Y87.667 E6.32035
G1 X157.347 Y87.999 E6.34749
G1 X157.38 Y88.217 E6.36509
G1 X157.404 Y88.468 E6.38521
G1 X157.41 Y88.673 E6.40159
G1 X157.41 Y146.267 E10.99899
G1 X157.402 Y146.472 E11.01536
G1 X157.384 Y146.732 E11.03617
G1 X157.34 Y147.042 E11.06116
G1 X157.3 Y147.23 E11.0765
G1 X157.208 Y147.544 E11.10262
G1 X157.152 Y147.699 E11.11578
G1 X157.015 Y148.003 E11.1424
G1 X156.922 Y148.174 E11.15793
G1 X156.75 Y148.447 E11.18369
G1 X156.632 Y148.605 E11.19943
G1 X156.442 Y148.834 E11.22318
G1 X156.191 Y149.084 E11.25146
G1 X155.986 Y149.262 E11.27313
G1 X155.711 Y149.469 E11.30061
G1 X155.564 Y149.565 E11.31462
G1 X155.273 Y149.725 E11.34113
G1 X155.109 Y149.8 E11.35553
G1 X154.813 Y149.913 E11.38082
G1 X154.638 Y149.965 E11.39539
G1 X154.311 Y150.037 E11.42212
G1 X154.093 Y150.07 E11.43972
G1 X153.839 Y150.094 E11.46009
G1 X153.627 Y150.1 E11.47702
G1 X85.077 Y150.1 E16.94897
G1 X84.758 Y150.092 E16.97445
G1 X84.377 Y150.062 E17.00495
G1 X83.97 Y150.024 E17.03758
G1 X83.684 Y149.98 E17.06068
G1 X83.406 Y149.925 E17.0833
G1 X83.057 Y149.838 E17.11201
G1 X82.735 Y149.744 E17.13879
G1 X82.406 Y149.627 E17.16666
G1 X82.123 Y149.517 E17.1909
G1 X81.8 Y149.369 E17.21926
G1 X81.378 Y149.149 E17.25725
G1 X81.069 Y148.968 E17.28583
G1 X80.747 Y148.755 E17.31665
G1 X80.466 Y148.547 E17.34456
G1 X80.259 Y148.384 E17.36559
G1 X80.149 Y148.288 E17.37725
G1 X79.953 Y148.111 E17.39833
G1 X79.864 Y148.025 E17.40821
G1 X79.629 Y147.785 E17.43502
G1 X79.382 Y147.516 E17.46417
G1 X79.167 Y147.254 E17.49122
G1 X78.998 Y147.018 E17.5144
G1 X78.766 Y146.688 E17.5466
G1 X78.634 Y146.472 E17.5668
G1 X78.407 Y146.063 E17.60414
G1 X78.354 Y145.96 E17.61339
G1 X78.194 Y145.617 E17.6436
G1 X78.091 Y145.363 E17.66548
G1 X77.951 Y144.966 E17.69908
G1 X77.867 Y144.687 E17.72234
G1 X77.754 Y144.233 E17.75969
G1 X77.706 Y143.974 E17.78071
G1 X77.666 Y143.709 E17.80211
G1 X77.63 Y143.328 E17.83266
G1 X77.603 Y143.057 E17.85439
G1 X77.59 Y142.699 E17.88299
G1 X77.59 Y92.315 E21.90486
G1 X77.605 Y91.923 E21.93617
G1 X77.631 Y91.657 E21.95751
G1 X77.668 Y91.272 E21.98838
G1 X77.713 Y90.977 E22.0122
G1 X77.766 Y90.716 E22.03346
G1 X77.789 Y90.617 E22.04158
G1 X77.857 Y90.35 E22.06357
G1 X77.931 Y90.093 E22.08492
G1 X77.971 Y89.971 E22.09517
G1 X78.094 Y89.628 E22.12425
G1 X78.208 Y89.349 E22.14831
G1 X78.342 Y89.071 E22.17295
G1 X78.535 Y88.699 E22.2064
G1 X78.709 Y88.4 E22.23401
G1 X78.916 Y88.083 E22.26423
G1 X78.988 Y87.983 E22.27407
G1 X79.143 Y87.776 E22.29471
G1 X79.348 Y87.52 E22.32089
G1 X79.563 Y87.281 E22.34655
G1 X79.678 Y87.162 E22.35976
G1 X79.891 Y86.952 E22.38364
G0 F9000 X80 Y86.851
G1 F1350 X80 Y148.153 E27.27703
G0 F9000 X81.6 Y149.264
G1 F1350 X81.6 Y85.731 E32.34851
G0 F9000 X83.2 Y85.127
G1 F1350 X83.2 Y149.873 E37.51682
G0 F9000 X84.8 Y150.093
G1 F1350 X84.8 Y84.904 E42.72048
G0 F9000 X86.4 Y84.9
G1 F1350 X86.4 Y150.1 E47.92503
G0 F9000 X88 Y150.1
G1 F1350 X88 Y84.9 E53.12958
G0 F9000 X89.6 Y84.9
G1 F1350 X89.6 Y150.1 E58.33412
G0 F9000 X91.2 Y150.1
G1 F1350 X91.2 Y84.9 E63.53867
G0 F9000 X92.8 Y84.9
G1 F1350 X92.8 Y150.1 E68.74321
G0 F9000 X94.4 Y150.1
G1 F1350 X94.4 Y84.9 E73.94776
G0 F9000 X96 Y84.9
G1 F1350 X96 Y150.1 E79.15231
G0 F9000 X97.6 Y150.1
G1 F1350 X97.6 Y84.9 E84.35685
G0 F9000 X99.2 Y84.9
G1 F1350 X99.2 Y150.1 E89.5614
G0 F9000 X100.8 Y150.1
G1 F1350 X100.8 Y84.9 E94.76594
G0 F9000 X102.4 Y84.9
G1 F1350 X102.4 Y150.1 E99.97049
G0 F9000 X104 Y150.1
G1 F1350 X104 Y84.9 E105.17504
G0 F9000 X105.6 Y84.9
G1 F1350 X105.6 Y150.1 E110.37958
G0 F9000 X107.2 Y150.1
G1 F1350 X107.2 Y84.9 E115.58413
G0 F9000 X108.8 Y84.9
G1 F1350 X108.8 Y150.1 E120.78867
G0 F9000 X110.4 Y150.1
G1 F1350 X110.4 Y84.9 E125.99322
G0 F9000 X112 Y84.9
G1 F1350 X112 Y150.1 E131.19777
G0 F9000 X113.6 Y150.1
G1 F1350 X113.6 Y84.9 E136.40231
G0 F9000 X115.2 Y84.9
G1 F1350 X115.2 Y150.1 E141.60686
G0 F9000 X116.8 Y150.1
G1 F1350 X116.8 Y84.9 E146.8114
G0 F9000 X118.4 Y84.9
G1 F1350 X118.4 Y150.1 E152.01595
G0 F9000 X120 Y150.1
G1 F1350 X120 Y84.9 E157.22049
G0 F9000 X121.6 Y84.9
G1 F1350 X121.6 Y150.1 E162.42504
G0 F9000 X123.2 Y150.1
G1 F1350 X123.2 Y84.9 E167.62959
G0 F9000 X124.8 Y84.9
G1 F1350 X124.8 Y150.1 E172.83413
G0 F9000 X126.4 Y150.1
G1 F1350 X126.4 Y84.9 E178.03868
G0 F9000 X128 Y84.9
G1 F1350 X128 Y150.1 E183.24322
G0 F9000 X129.6 Y150.1
G1 F1350 X129.6 Y84.9 E188.44777
G0 F9000 X131.2 Y84.9
G1 F1350 X131.2 Y150.1 E193.65232
G0 F9000 X132.8 Y150.1
G1 F1350 X132.8 Y84.9 E198.85686
G0 F9000 X134.4 Y84.9
G1 F1350 X134.4 Y150.1 E204.06141
G0 F9000 X136 Y150.1
G1 F1350 X136 Y84.9 E209.26595
G0 F9000 X137.6 Y84.9
G1 F1350 X137.6 Y150.1 E214.4705
G0 F9000 X139.2 Y150.1
G1 F1350 X139.2 Y84.9 E219.67505
G0 F9000 X140.8 Y84.9
G1 F1350 X140.8 Y150.1 E224.87959
G0 F9000 X142.4 Y150.1
G1 F1350 X142.4 Y84.9 E230.08414
G0 F9000 X144 Y84.9
G1 F1350 X144 Y150.1 E235.28868
G0 F9000 X145.6 Y150.1
G1 F1350 X145.6 Y84.9 E240.49323
G0 F9000 X147.2 Y84.9
G1 F1350 X147.2 Y150.1 E245.69778
G0 F9000 X148.8 Y150.1
G1 F1350 X148.8 Y84.9 E250.90232
G0 F9000 X150.4 Y84.9
G1 F1350 X150.4 Y150.1 E256.10687
G0 F9000 X152 Y150.1
G1 F1350 X152 Y84.9 E261.31141
G0 F9000 X153.6 Y84.901
G1 F1350 X153.6 Y150.1 E266.51588
G0 F9000 X155.2 Y149.759
G1 F1350 X155.2 Y85.245 E271.66567
G0 F9000 X156.8 Y86.629
G1 F1350 X156.8 Y148.368 E276.59394
G1 F2400 E270.59394
G0 F9000 X157.463 Y149.271
G0 X156.656 Y150.092
G0 X155.746 Y150.679
G0 X154.897 Y150.998
G0 X153.777 Y151.161
G0 X84.476 Y151.14
G0 X83.05 Y150.934
G0 X81.532 Y150.42
G0 X80.587 Y149.954
G0 X79.221 Y148.885
G0 X78.376 Y147.931
G0 X77.705 Y146.992
G0 X78.4 Y146.049
G1 F2400 E276.59394
G1 F1350 X78.4 Y88.959 E281.15111
G1 F2400 E275.15111
G0 F300 X78.4 Y88.959 Z0.54
G0 F9000 X77.253 Y88.881
G0 X76.756 Y90.361
G0 X76.545 Y91.825
G0 X76.553 Y143.237
G0 X76.734 Y144.545
G0 X77.218 Y146.044
G0 X77.705 Y146.992
G0 X78.766 Y146.687
;TIME_ELAPSED:169.418158
;LAYER:-4
;TYPE:SUPPORT
G1 F2400 E281.15111
G1 F1350 X78.892 Y146.875 E281.17369
G1 X78.997 Y147.017 E281.19131
G1 X79.054 Y147.105 E281.20178
G1 X79.166 Y147.252 E281.22022
G1 X79.337 Y147.464 E281.24739
G1 X79.514 Y147.662 E281.27389
G1 X79.596 Y147.744 E281.28546
G1 X79.628 Y147.783 E281.2905
G1 X79.863 Y148.024 E281.32408
G1 X79.953 Y148.109 E281.33644
G1 X80.149 Y148.287 E281.36286
G1 X80.259 Y148.383 E281.37742
G1 X80.465 Y148.546 E281.40363
G1 X80.674 Y148.702 E281.42966
G1 X80.887 Y148.853 E281.45571
G1 X80.989 Y148.918 E281.46778
G1 X81.107 Y148.989 E281.48152
G1 X78.7 Y146.582 E281.82117
G1 X78.672 Y146.537 E281.82646
G1 X78.597 Y146.405 E281.84161
G1 X78.406 Y146.062 E281.88078
G1 X78.353 Y145.958 E281.89243
G1 X78.193 Y145.616 E281.9301
G1 X78.09 Y145.362 E281.95745
G1 X77.951 Y144.965 E281.99942
G1 X77.867 Y144.686 E282.0285
G1 X77.754 Y144.232 E282.07518
G1 X77.751 Y144.219 E282.07651
G1 X83.47 Y149.938 E282.88352
G1 X83.51 Y149.947 E282.88761
G1 X83.683 Y149.979 E282.90517
G1 X83.969 Y150.023 E282.93404
G1 X84.19 Y150.046 E282.95621
G1 X84.376 Y150.061 E282.97483
G1 X84.61 Y150.083 E282.99828
G1 X84.852 Y150.094 E283.02246
G1 X85.045 Y150.098 E283.04172
G1 X77.589 Y142.643 E284.09377
G1 X77.589 Y141.229 E284.23486
G1 X86.46 Y150.099 E285.48658
G1 X87.874 Y150.099 E285.62767
G1 X77.589 Y139.814 E287.079
G1 X77.589 Y138.4 E287.22008
G1 X89.288 Y150.099 E288.87094
G1 X90.702 Y150.099 E289.01203
G1 X77.589 Y136.986 E290.86242
G1 X77.589 Y135.572 E291.00351
G1 X92.116 Y150.099 E293.05342
G1 X93.531 Y150.099 E293.19461
G1 X77.589 Y134.157 E295.4442
G1 X77.589 Y132.743 E295.58529
G1 X94.945 Y150.099 E298.03441
G1 X96.359 Y150.099 E298.1755
G1 X77.589 Y131.329 E300.82415
G1 X77.589 Y129.915 E300.96524
G1 X97.773 Y150.099 E303.81342
G1 X99.187 Y150.099 E303.95451
G1 X77.589 Y128.501 E307.00222
G1 X77.589 Y127.086 E307.14341
G1 X100.602 Y150.099 E310.39079
G1 X102.016 Y150.099 E310.53188
G1 X77.589 Y125.672 E313.97879
G1 X77.589 Y124.258 E314.11988
G1 X103.43 Y150.099 E317.76633
G1 X104.844 Y150.099 E317.90742
G1 X77.589 Y122.844 E321.75339
G1 X77.589 Y121.43 E321.89448
G1 X106.259 Y150.099 E325.94006
G1 X107.673 Y150.099 E326.08115
G1 X77.589 Y120.015 E330.32632
G1 X77.589 Y118.601 E330.46741
G1 X109.087 Y150.099 E334.91212
G1 X110.501 Y150.099 E335.05321
G1 X77.589 Y117.187 E339.69745
G1 X77.589 Y115.773 E339.83854
G1 X111.915 Y150.099 E344.68231
G1 X113.33 Y150.099 E344.8235
G1 X77.589 Y114.358 E349.86694
G1 X77.589 Y112.944 E350.00803
G1 X114.744 Y150.099 E355.251
G1 X116.158 Y150.099 E355.39209
G1 X77.589 Y111.53 E360.83459
G1 X77.589 Y110.116 E360.97568
G1 X117.572 Y150.099 E366.61771
G1 X118.986 Y150.099 E366.7588
G1 X77.589 Y108.702 E372.60037
G1 X77.589 Y107.287 E372.74156
G1 X120.401 Y150.099 E378.78279
G1 X121.815 Y150.099 E378.92388
G1 X77.589 Y105.873 E385.16465
G1 X77.589 Y104.459 E385.30574
G1 X123.229 Y150.099 E391.74604
G1 X124.643 Y150.099 E391.88712
G1 X77.589 Y103.045 E398.52695
G1 X77.589 Y101.631 E398.66804
G1 X126.058 Y150.099 E405.50747
G1 X127.472 Y150.099 E405.64856
G1 X77.589 Y100.216 E412.68759
G1 X77.589 Y98.802 E412.82868
G1 X128.886 Y150.099 E420.06724
G1 X130.3 Y150.099 E420.20833
G1 X77.589 Y97.388 E427.64642
G1 X77.589 Y95.974 E427.78751
G1 X131.714 Y150.099 E435.42513
G1 X133.129 Y150.099 E435.56632
G1 X77.589 Y94.559 E443.40362
G1 X77.589 Y93.145 E443.54471
G1 X134.543 Y150.099 E451.58153
G1 X135.957 Y150.099 E451.72262
G1 X77.62 Y91.762 E459.9546
G1 X77.631 Y91.655 E459.96533
G1 X77.643 Y91.493 E459.98154
G1 X77.667 Y91.271 E460.00382
G1 X77.712 Y90.976 E460.0336
G1 X77.74 Y90.828 E460.04863
G1 X77.789 Y90.616 E460.07034
G1 X77.809 Y90.537 E460.07847
G1 X137.371 Y150.099 E468.48331
G1 X138.785 Y150.099 E468.6244
G1 X78.157 Y89.47 E477.17974
G1 X78.208 Y89.347 E477.19302
G1 X78.341 Y89.069 E477.22377
G1 X78.534 Y88.698 E477.2655
G1 X78.611 Y88.563 E477.28101
G1 X78.63 Y88.529 E477.2849
G1 X140.2 Y150.099 E485.97309
G1 X141.614 Y150.099 E486.11418
G1 X79.207 Y87.692 E494.92048
G1 X79.287 Y87.592 E494.93326
G1 X79.393 Y87.467 E494.94961
G1 X79.562 Y87.28 E494.97476
G1 X79.678 Y87.16 E494.99141
G1 X79.885 Y86.956 E495.02041
G1 X143.028 Y150.099 E503.93057
G1 X144.442 Y150.099 E504.07166
G1 X80.658 Y86.315 E513.07227
G1 X80.671 Y86.307 E513.0738
G1 X80.814 Y86.201 E513.09156
G1 X81.001 Y86.074 E513.11411
G1 X81.129 Y85.994 E513.12917
G1 X81.283 Y85.906 E513.14687
G1 X81.528 Y85.771 E513.17478
G1 X145.857 Y150.099 E522.25223
G1 X147.271 Y150.099 E522.39332
G1 X82.508 Y85.336 E531.53208
G1 X82.718 Y85.262 E531.5543
G1 X82.814 Y85.231 E531.56436
G1 X83.062 Y85.161 E531.59007
G1 X83.386 Y85.08 E531.6234
G1 X83.535 Y85.047 E531.63863
G1 X83.618 Y85.032 E531.64704
G1 X148.685 Y150.099 E540.8287
G1 X150.099 Y150.099 E540.96979
G1 X84.903 Y84.903 E550.16965
G1 X85.025 Y84.899 E550.18183
G1 X86.314 Y84.9 E550.31044
G1 X151.513 Y150.099 E559.51073
G1 X152.928 Y150.099 E559.65192
G1 X87.728 Y84.9 E568.85227
G1 X89.142 Y84.9 E568.99336
G1 X154.282 Y150.04 E578.18532
G1 X154.31 Y150.036 E578.18814
G1 X154.637 Y149.964 E578.22155
G1 X154.811 Y149.913 E578.23964
G1 X155.108 Y149.799 E578.27138
G1 X155.272 Y149.724 E578.28938
G1 X155.342 Y149.686 E578.29733
G1 X90.557 Y84.9 E587.43926
G1 X91.971 Y84.9 E587.58035
G1 X156.171 Y149.1 E596.63966
G1 X156.19 Y149.084 E596.64214
G1 X156.295 Y148.986 E596.65647
G1 X156.344 Y148.937 E596.66339
G1 X156.441 Y148.833 E596.67758
G1 X156.631 Y148.605 E596.70719
G1 X156.749 Y148.446 E596.72695
G1 X156.82 Y148.334 E596.74018
G1 X93.385 Y84.9 E605.69147
G1 X94.799 Y84.9 E605.83256
G1 X157.261 Y147.361 E614.64655
G1 X157.299 Y147.23 E614.66016
G1 X157.339 Y147.042 E614.67934
G1 X157.383 Y146.731 E614.71068
G1 X157.401 Y146.472 E614.73659
G1 X157.409 Y146.267 E614.75706
G1 X157.409 Y146.096 E614.77412
G1 X96.213 Y84.9 E623.40954
G1 X97.628 Y84.9 E623.55073
G1 X157.409 Y144.681 E631.98647
G1 X157.409 Y143.267 E632.12756
G1 X99.042 Y84.9 E640.36378
G1 X100.456 Y84.9 E640.50487
G1 X157.409 Y141.853 E648.54155
G1 X157.409 Y140.439 E648.68264
G1 X101.87 Y84.9 E656.51979
G1 X103.284 Y84.9 E656.66088
G1 X157.409 Y139.024 E664.29843
G1 X157.409 Y137.61 E664.43952
G1 X104.699 Y84.9 E671.87747
G1 X106.113 Y84.9 E672.01856
G1 X157.409 Y136.196 E679.25698
G1 X157.409 Y134.782 E679.39807
G1 X107.527 Y84.9 E686.43696
G1 X108.941 Y84.9 E686.57805
G1 X157.409 Y133.368 E693.41741
G1 X157.409 Y131.953 E693.5586
G1 X110.356 Y84.9 E700.19828
G1 X111.77 Y84.9 E700.33937
G1 X157.409 Y130.539 E706.77953
G1 X157.409 Y129.125 E706.92062
G1 X113.184 Y84.9 E713.16124
G1 X114.598 Y84.9 E713.30233
G1 X157.409 Y127.711 E719.34343
G1 X157.409 Y126.297 E719.48452
G1 X116.012 Y84.9 E725.32608
G1 X117.427 Y84.9 E725.46727
G1 X157.409 Y124.882 E731.10916
G1 X157.409 Y123.468 E731.25025
G1 X118.841 Y84.9 E736.69261
G1 X120.255 Y84.9 E736.8337
G1 X157.409 Y122.054 E742.07653
G1 X157.409 Y120.64 E742.21762
G1 X121.669 Y84.9 E747.26092
G1 X123.083 Y84.9 E747.40201
G1 X157.409 Y119.225 E752.24571
G1 X157.409 Y117.811 E752.3868
G1 X124.498 Y84.9 E757.0309
G1 X125.912 Y84.9 E757.17199
G1 X157.409 Y116.397 E761.61656
G1 X157.409 Y114.983 E761.75765
G1 X127.326 Y84.9 E766.00268
G1 X128.74 Y84.9 E766.14377
G1 X157.409 Y113.569 E770.18928
G1 X157.409 Y112.154 E770.33047
G1 X130.155 Y84.9 E774.1763
G1 X131.569 Y84.9 E774.31739
G1 X157.409 Y110.74 E777.96369
G1 X157.409 Y109.326 E778.10478
G1 X132.983 Y84.9 E781.55155
G1 X134.397 Y84.9 E781.69264
G1 X157.409 Y107.912 E784.93989
G1 X157.409 Y106.498 E785.08098
G1 X135.811 Y84.9 E788.12869
G1 X137.226 Y84.9 E788.26988
G1 X157.409 Y105.083 E791.11791
G1 X157.409 Y103.669 E791.259
G1 X138.64 Y84.9 E793.90751
G1 X140.054 Y84.9 E794.0486
G1 X157.409 Y102.255 E796.49758
G1 X157.409 Y100.841 E796.63867
G1 X141.468 Y84.9 E798.88812
G1 X142.882 Y84.9 E799.02921
G1 X157.409 Y99.426 E801.07905
G1 X157.409 Y98.012 E801.22014
G1 X144.297 Y84.9 E803.07039
G1 X145.711 Y84.9 E803.21148
G1 X157.409 Y96.598 E804.86219
G1 X157.409 Y95.184 E805.00328
G1 X147.125 Y84.9 E806.45446
G1 X148.539 Y84.9 E806.59555
G1 X157.409 Y93.77 E807.84721
G1 X157.409 Y92.355 E807.9884
G1 X149.954 Y84.9 E809.04038
G1 X151.368 Y84.9 E809.18147
G1 X157.409 Y90.941 E810.03392
G1 X157.409 Y89.527 E810.17501
