;FLAVOR:Marlin
;TIME:13611
;Filament used: 9.7954m
;Layer height: 0.2
;MINX:76.482
;MINY:84.834
;MINZ:0.24
;MAXX:160.244
;MAXY:150.185
;MAXZ:31.43
;Generated with Cura_SteamEngine 4.10.0
M140 S60
M105
M190 S60
M104 S230
M105
M109 S230
M82 ;absolute extrusion mode
; Ender 3 Custom Start G-code
G92 E0 ; Reset Extruder
G28 ; Home all axes
G1 Z2.0 F3000 ; Move Z Axis up little to prevent scratching of Heat Bed
G1 X0.1 Y20 Z0.3 F5000.0 ; Move to start position
G1 X0.1 Y200.0 Z0.3 F1500.0 E15 ; Draw the first line
G1 X0.4 Y200.0 Z0.3 F5000.0 ; Move to side a little
G1 X0.4 Y20 Z0.3 F1500.0 E30 ; Draw the second line
G92 E0 ; Reset Extruder
G1 Z2.0 F3000 ; Move Z Axis up little to prevent scratching of Heat Bed
G1 X5 Y20 Z0.3 F5000.0 ; Move over to prevent blob squish
G92 E0
G92 E0
G1 F2400 E-6
;LAYER_COUNT:152
;LAYER:-5
M106 S63.8
G0 F9000 X78.862 Y87.549 Z0.24
;TYPE:SUPPORT-INTERFACE
G1 F2400 E0
G1 F1350 X79.093 Y87.351 E0.02429
G1 X79.679 Y86.901 E0.08326
G1 X79.793 Y86.82 E0.09443
G1 X80.04 Y86.657 E0.11805
G1 X80.33 Y86.494 E0.14461
G1 X80.758 Y86.308 E0.18186
G1 X81.014 Y86.224 E0.20336
G1 X81.544 Y86.075 E0.24731
G1 X81.888 Y85.988 E0.27563
G1 X82.288 Y85.922 E0.308
G1 X82.542 Y85.893 E0.3284
G1 X82.664 Y85.884 E0.33817
G1 X82.964 Y85.873 E0.36213
G1 X83.288 Y85.885 E0.38801
G1 X83.466 Y85.903 E0.40229
G1 X83.744 Y85.953 E0.42484
G1 X84.66 Y86.034 E0.49825
G1 X152.807 Y86.034 E5.93803
G1 X153.017 Y86.042 E5.95481
G1 X153.272 Y86.06 E5.97521
G1 X153.582 Y86.104 E6.00021
G1 X153.767 Y86.144 E6.01532
G1 X154.083 Y86.235 E6.04157
G1 X154.252 Y86.298 E6.05596
G1 X154.543 Y86.429 E6.08144
G1 X154.714 Y86.522 E6.09698
G1 X154.978 Y86.689 E6.12191
G1 X155.153 Y86.818 E6.13927
G1 X155.376 Y87.004 E6.16245
G1 X155.612 Y87.239 E6.18903
G1 X155.743 Y87.391 E6.20505
G1 X156.214 Y87.868 E6.25856
G1 X156.749 Y88.288 E6.31285
G1 X157.254 Y88.597 E6.36011
G1 X157.528 Y88.771 E6.38602
G1 X157.703 Y88.901 E6.40342
G1 X157.905 Y89.069 E6.4244
G1 X158.185 Y89.351 E6.45612
G1 X158.359 Y89.554 E6.47746
G1 X158.561 Y89.824 E6.50438
G1 X158.654 Y89.968 E6.51806
G1 X158.807 Y90.252 E6.54381
G1 X158.887 Y90.425 E6.55903
G1 X158.997 Y90.723 E6.58438
G1 X159.05 Y90.899 E6.59905
G1 X159.118 Y91.21 E6.62447
G1 X159.154 Y91.46 E6.64463
G1 X159.18 Y91.843 E6.67527
G1 X159.18 Y143.058 E10.76347
G1 X159.172 Y143.263 E10.77985
G1 X159.154 Y143.523 E10.80065
G1 X159.11 Y143.833 E10.82565
G1 X159.07 Y144.018 E10.84076
G1 X158.979 Y144.334 E10.86701
G1 X158.916 Y144.503 E10.8814
G1 X158.785 Y144.794 E10.90688
G1 X158.692 Y144.965 E10.92242
G1 X158.518 Y145.241 E10.94846
G1 X158.402 Y145.396 E10.96391
G1 X158.21 Y145.627 E10.98789
G1 X157.953 Y145.882 E11.01679
G1 X157.748 Y146.061 E11.03852
G1 X157.483 Y146.26 E11.06497
G1 X157.226 Y146.415 E11.08893
G1 X156.66 Y146.774 E11.14243
G1 X156.134 Y147.209 E11.19691
G1 X155.909 Y147.448 E11.22312
G1 X155.537 Y147.842 E11.26637
G1 X155.413 Y147.957 E11.27987
G1 X155.209 Y148.135 E11.30148
G1 X154.934 Y148.342 E11.32896
G1 X154.808 Y148.423 E11.34091
G1 X154.507 Y148.589 E11.36835
G1 X154.336 Y148.667 E11.38336
G1 X154.043 Y148.779 E11.4084
G1 X153.868 Y148.831 E11.42297
G1 X153.541 Y148.903 E11.4497
G1 X153.323 Y148.936 E11.4673
G1 X153.069 Y148.96 E11.48766
G1 X152.857 Y148.966 E11.50459
G1 X84.712 Y148.966 E16.94422
G1 X83.849 Y149.038 E17.01335
G1 X83.453 Y149.105 E17.04541
G1 X83.275 Y149.122 E17.05968
G1 X82.961 Y149.13 E17.08475
G1 X82.672 Y149.117 E17.10785
G1 X82.34 Y149.084 E17.13448
G1 X82.027 Y149.037 E17.15974
G1 X81.888 Y149.011 E17.17103
G1 X81.632 Y148.945 E17.19213
G1 X81.526 Y148.916 E17.20091
G1 X80.934 Y148.737 E17.25028
G1 X80.807 Y148.694 E17.26098
G1 X80.529 Y148.588 E17.28473
G1 X80.233 Y148.45 E17.3108
G1 X80.052 Y148.35 E17.3273
G1 X79.816 Y148.202 E17.34954
G1 X79.646 Y148.079 E17.36629
G1 X79.189 Y147.725 E17.41243
G1 X79.007 Y147.571 E17.43147
G1 X78.691 Y147.28 E17.46576
G1 X78.381 Y146.954 E17.50167
G1 X78.272 Y146.826 E17.51509
G1 X78.1 Y146.608 E17.53725
G1 X77.915 Y146.336 E17.56351
G1 X77.827 Y146.184 E17.57753
G1 X77.681 Y145.882 E17.60431
G1 X77.563 Y145.584 E17.62989
G1 X77.5 Y145.405 E17.64504
G1 X77.227 Y144.507 E17.71996
G1 X77.146 Y144.201 E17.74523
G1 X77.081 Y143.908 E17.76919
G1 X77.053 Y143.749 E17.78207
G1 X77 Y143.387 E17.81128
G1 X76.982 Y143.219 E17.82477
G1 X76.963 Y142.966 E17.84502
G1 X76.953 Y142.698 E17.86643
G1 X76.955 Y92.271 E21.89173
G1 X76.97 Y91.904 E21.92105
G1 X76.997 Y91.625 E21.94342
G1 X77.047 Y91.28 E21.97125
G1 X77.114 Y90.937 E21.99915
G1 X77.205 Y90.574 E22.02902
G1 X77.24 Y90.454 E22.039
G1 X77.52 Y89.558 E22.11393
G1 X77.575 Y89.4 E22.12728
G1 X77.678 Y89.138 E22.14976
G1 X77.818 Y88.845 E22.17568
G1 X77.894 Y88.709 E22.18811
G1 X78.088 Y88.418 E22.21603
G1 X78.264 Y88.19 E22.23902
G1 X78.369 Y88.063 E22.25218
G1 X78.553 Y87.858 E22.27417
G1 X78.623 Y87.785 E22.28224
G1 X78.862 Y87.549 E22.30905
G0 F9000 X78.4 Y88.028
G1 F1350 X78.4 Y146.973 E27.0143
G0 F9000 X80 Y148.317
G1 F1350 X80 Y86.683 E31.93419
G0 F9000 X81.6 Y86.06
G1 F1350 X81.6 Y148.936 E36.95322
G0 F9000 X83.2 Y149.124
G1 F1350 X83.2 Y85.882 E42.00147
G0 F9000 X84.8 Y86.034
G1 F1350 X84.8 Y148.966 E47.02498
G0 F9000 X86.4 Y148.966
G1 F1350 X86.4 Y86.034 E52.04848
G0 F9000 X88 Y86.034
G1 F1350 X88 Y148.966 E57.07199
G0 F9000 X89.6 Y148.966
G1 F1350 X89.6 Y86.034 E62.09549
G0 F9000 X91.2 Y86.034
G1 F1350 X91.2 Y148.966 E67.11899
G0 F9000 X92.8 Y148.966
G1 F1350 X92.8 Y86.034 E72.1425
G0 F9000 X94.4 Y86.034
G1 F1350 X94.4 Y148.966 E77.166
G0 F9000 X96 Y148.966
G1 F1350 X96 Y86.034 E82.18951
G0 F9000 X97.6 Y86.034
G1 F1350 X97.6 Y148.966 E87.21301
G0 F9000 X99.2 Y148.966
G1 F1350 X99.2 Y86.034 E92.23652
G0 F9000 X100.8 Y86.034
G1 F1350 X100.8 Y148.966 E97.26002
G0 F9000 X102.4 Y148.966
G1 F1350 X102.4 Y86.034 E102.28352
G0 F9000 X104 Y86.034
G1 F1350 X104 Y148.966 E107.30703
G0 F9000 X105.6 Y148.966
G1 F1350 X105.6 Y86.034 E112.33053
G0 F9000 X107.2 Y86.034
G1 F1350 X107.2 Y148.966 E117.35404
G0 F9000 X108.8 Y148.966
G1 F1350 X108.8 Y86.034 E122.37754
G0 F9000 X110.4 Y86.034
G1 F1350 X110.4 Y148.966 E127.40105
G0 F9000 X112 Y148.966
G1 F1350 X112 Y86.034 E132.42455
G0 F9000 X113.6 Y86.034
G1 F1350 X113.6 Y148.966 E137.44806
G0 F9000 X115.2 Y148.966
G1 F1350 X115.2 Y86.034 E142.47156
G0 F9000 X116.8 Y86.034
G1 F1350 X116.8 Y148.966 E147.49506
G0 F9000 X118.4 Y148.966
G1 F1350 X118.4 Y86.034 E152.51857
G0 F9000 X120 Y86.034
G1 F1350 X120 Y148.966 E157.54207
G0 F9000 X121.6 Y148.966
G1 F1350 X121.6 Y86.034 E162.56558
G0 F9000 X123.2 Y86.034
G1 F1350 X123.2 Y148.966 E167.58908
G0 F9000 X124.8 Y148.966
G1 F1350 X124.8 Y86.034 E172.61259
G0 F9000 X126.4 Y86.034
G1 F1350 X126.4 Y148.966 E177.63609
G0 F9000 X128 Y148.966
G1 F1350 X128 Y86.034 E182.65959
G0 F9000 X129.6 Y86.034
G1 F1350 X129.6 Y148.966 E187.6831
G0 F9000 X131.2 Y148.966
G1 F1350 X131.2 Y86.034 E192.7066
G0 F9000 X132.8 Y86.034
G1 F1350 X132.8 Y148.966 E197.73011
G0 F9000 X134.4 Y148.966
G1 F1350 X134.4 Y86.034 E202.75361
G0 F9000 X136 Y86.034
G1 F1350 X136 Y148.966 E207.77712
G0 F9000 X137.6 Y148.966
G1 F1350 X137.6 Y86.034 E212.80062
G0 F9000 X139.2 Y86.034
G1 F1350 X139.2 Y148.966 E217.82413
G0 F9000 X140.8 Y148.966
G1 F1350 X140.8 Y86.034 E222.84763
G0 F9000 X142.4 Y86.034
G1 F1350 X142.4 Y148.966 E227.87113
G0 F9000 X144 Y148.966
G1 F1350 X144 Y86.034 E232.89464
G0 F9000 X145.6 Y86.034
G1 F1350 X145.6 Y148.966 E237.91814
G0 F9000 X147.2 Y148.966
G1 F1350 X147.2 Y86.034 E242.94165
G0 F9000 X148.8 Y86.034
G1 F1350 X148.8 Y148.966 E247.96515
G0 F9000 X150.4 Y148.966
G1 F1350 X150.4 Y86.034 E252.98866
G0 F9000 X152 Y86.034
G1 F1350 X152 Y148.966 E258.01216
G0 F9000 X153.6 Y148.891
G1 F1350 X153.6 Y86.108 E263.02377
G0 F9000 X155.2 Y86.858
G1 F1350 X155.2 Y148.142 E267.91572
G0 F9000 X156.8 Y146.686
G1 F1350 X156.8 Y88.32 E272.57475
G0 F9000 X158.4 Y89.609
G1 F1350 X158.4 Y145.399 E277.02815
G0 F300 X158.4 Y145.399 Z0.54
G0 F9000 X158.401 Y145.396
;TIME_ELAPSED:164.948510
;LAYER:-4
;TYPE:SUPPORT
G1 F1350 X158.275 Y145.548 E277.04785
G1 X98.761 Y86.033 E285.44599
G1 X97.347 Y86.033 E285.58708
G1 X157.534 Y146.22 E294.08011
G1 X157.481 Y146.26 E294.08674
G1 X157.334 Y146.354 E294.10415
G1 X157.225 Y146.414 E294.11656
G1 X156.667 Y146.768 E294.1825
G1 X95.933 Y86.033 E302.7528
G1 X94.518 Y86.033 E302.89398
G1 X155.92 Y147.435 E311.55847
G1 X155.907 Y147.448 E311.5603
G1 X155.536 Y147.841 E311.61423
G1 X155.412 Y147.956 E311.63111
G1 X155.208 Y148.134 E311.65812
G0 F9000 X155.206 Y148.135
G1 F1350 X93.104 Y86.033 E320.42138
G1 X91.69 Y86.033 E320.56247
G1 X154.326 Y148.669 E329.40109
G1 X154.042 Y148.778 E329.43144
G1 X153.867 Y148.831 E329.44969
G1 X153.54 Y148.903 E329.4831
G1 X153.322 Y148.935 E329.50508
G1 X153.19 Y148.947 E329.51831
G1 X90.276 Y86.033 E338.39615
G1 X88.862 Y86.033 E338.53724
G1 X151.793 Y148.965 E347.41756
G1 X150.379 Y148.965 E347.55865
G1 X87.447 Y86.033 E356.43903
G1 X86.033 Y86.033 E356.58012
G1 X148.965 Y148.965 E365.46051
G1 X147.551 Y148.965 E365.60159
G1 X84.615 Y86.029 E374.48254
G1 X83.744 Y85.951 E374.5698
G1 X83.465 Y85.902 E374.59807
G1 X83.287 Y85.884 E374.61592
G1 X83.046 Y85.875 E374.63998
G1 X146.137 Y148.965 E383.54273
G1 X144.722 Y148.965 E383.68392
G1 X81.772 Y86.015 E392.56685
G1 X81.713 Y86.028 E392.57287
G1 X81.544 Y86.073 E392.59033
G1 X81.013 Y86.223 E392.64538
G1 X80.757 Y86.307 E392.67227
G1 X80.681 Y86.338 E392.68046
G1 X143.308 Y148.965 E401.5178
G1 X141.894 Y148.965 E401.65889
G1 X79.767 Y86.838 E410.42568
G1 X79.678 Y86.899 E410.43645
G1 X79.133 Y87.318 E410.50504
G1 X78.968 Y87.453 E410.52631
G1 X140.48 Y148.965 E419.20632
G1 X139.065 Y148.965 E419.34751
G1 X78.275 Y88.174 E427.92571
G1 X78.263 Y88.188 E427.92755
G1 X78.087 Y88.417 E427.95637
G1 X77.894 Y88.708 E427.99121
G1 X77.817 Y88.844 E428.0068
G1 X77.724 Y89.038 E428.02827
G1 X137.651 Y148.965 E436.48462
G1 X136.237 Y148.965 E436.62571
G1 X77.354 Y90.082 E444.93473
G1 X77.238 Y90.453 E444.97352
G1 X77.165 Y90.721 E445.00123
G1 X77.114 Y90.936 E445.02328
G1 X77.076 Y91.107 E445.04076
G1 X77.059 Y91.201 E445.05029
G1 X134.823 Y148.965 E453.20142
G1 X133.409 Y148.965 E453.34251
G1 X76.953 Y92.51 E461.30899
G1 X76.953 Y93.924 E461.45008
G1 X131.994 Y148.965 E469.21696
G1 X130.58 Y148.965 E469.35805
G1 X76.953 Y95.338 E476.92539
G1 X76.953 Y96.752 E477.06648
G1 X129.166 Y148.965 E484.4343
G1 X127.752 Y148.965 E484.57539
G1 X76.953 Y98.166 E491.74368
G1 X76.953 Y99.581 E491.88487
G1 X126.338 Y148.965 E498.85356
G1 X124.923 Y148.965 E498.99474
G1 X76.953 Y100.995 E505.76383
G1 X76.953 Y102.409 E505.90492
G1 X123.509 Y148.965 E512.47447
G1 X122.095 Y148.965 E512.61556
G1 X76.953 Y103.823 E518.98559
G1 X76.953 Y105.237 E519.12668
G1 X120.681 Y148.965 E525.29717
G1 X119.266 Y148.965 E525.43836
G1 X76.953 Y106.652 E531.40918
G1 X76.953 Y108.066 E531.55027
G1 X117.852 Y148.965 E537.32156
G1 X116.438 Y148.965 E537.46265
G1 X76.953 Y109.48 E543.03441
G1 X76.953 Y110.894 E543.1755
G1 X115.024 Y148.965 E548.54773
G1 X113.61 Y148.965 E548.68882
G1 X76.953 Y112.309 E553.86145
G1 X76.953 Y113.723 E554.00254
G1 X112.195 Y148.965 E558.97556
G1 X110.781 Y148.965 E559.11665
G1 X76.953 Y115.137 E563.89015
G1 X76.953 Y116.551 E564.03124
G1 X109.367 Y148.965 E568.6052
G1 X107.953 Y148.965 E568.74629
G1 X76.953 Y117.965 E573.12073
G1 X76.953 Y119.379 E573.26182
G1 X106.539 Y148.965 E577.43672
G1 X105.124 Y148.965 E577.57791
G1 X76.953 Y120.793 E581.55321
G1 X76.953 Y122.207 E581.6943
G1 X103.71 Y148.965 E585.47008
G1 X102.296 Y148.965 E585.61117
G1 X76.953 Y123.622 E589.18734
G1 X76.953 Y125.036 E589.32843
G1 X100.882 Y148.965 E592.70507
G1 X99.468 Y148.965 E592.84616
G1 X76.953 Y126.45 E596.02327
G1 X76.953 Y127.864 E596.16435
G1 X98.053 Y148.965 E599.14186
G1 X96.639 Y148.965 E599.28295
G1 X76.953 Y129.278 E602.06093
G1 X76.953 Y130.693 E602.20212
G1 X95.225 Y148.965 E604.7805
G1 X93.811 Y148.965 E604.92159
G1 X76.953 Y132.107 E607.30043
G1 X76.953 Y133.521 E607.44152
G1 X92.396 Y148.965 E609.62077
G1 X90.982 Y148.965 E609.76186
G1 X76.953 Y134.935 E611.74157
G1 X76.953 Y136.349 E611.88266
G1 X89.568 Y148.965 E613.66284
G1 X88.154 Y148.965 E613.80393
G1 X76.953 Y137.764 E615.38451
G1 X76.953 Y139.178 E615.5256
G1 X86.74 Y148.965 E616.90665
G1 X85.325 Y148.965 E617.04784
G1 X76.953 Y140.592 E618.22929
G1 X76.953 Y142.006 E618.37038
G1 X83.972 Y149.026 E619.36091
G1 X83.848 Y149.036 E619.37332
G1 X83.453 Y149.104 E619.41332
G1 X83.275 Y149.121 E619.43116
G1 X82.961 Y149.129 E619.4625
G1 X82.672 Y149.116 E619.49137
G1 X82.645 Y149.113 E619.49408
G1 X77.013 Y143.481 E620.28881
G1 X77.052 Y143.748 E620.31574
G1 X77.081 Y143.906 E620.33176
G1 X77.145 Y144.2 E620.36179
G1 X77.203 Y144.422 E620.38468
G1 X77.226 Y144.506 E620.39337
G1 X77.489 Y145.371 E620.48358
G1 X80.813 Y148.695 E620.95264
G1 X80.806 Y148.693 E620.95336
G1 X80.529 Y148.587 E620.98296
G1 X80.233 Y148.449 E621.01554
G1 X80.052 Y148.348 E621.03622
G1 X79.816 Y148.201 E621.06397
G1 X79.645 Y148.078 E621.08499
G1 X79.188 Y147.724 E621.14267
G1 X79.006 Y147.57 E621.16645
G1 X78.691 Y147.279 E621.20924
G1 X78.53 Y147.118 E621.23196
G1 X78.38 Y146.953 E621.25421
G1 X78.272 Y146.825 E621.27092
G1 X78.099 Y146.607 E621.29869
G1 X77.915 Y146.335 E621.33146
G1 X77.827 Y146.183 E621.34899
G1 X77.68 Y145.881 E621.3825
G1 X77.562 Y145.583 E621.41448
G1 X77.499 Y145.404 E621.43341
G1 F2400 E615.43341
G0 F9000 X76.482 Y145.714
G0 X76.888 Y146.687
G0 X77.586 Y147.662
G0 X78.513 Y148.549
G0 X79.502 Y149.262
G0 X80.616 Y149.753
G0 X82.069 Y150.121
G0 X83.336 Y150.185
G0 X153.462 Y149.992
G0 X154.387 Y149.786
G0 X155.35 Y149.339
G0 X158.426 Y146.883
G0 X159.233 Y146.062
G0 X159.737 Y145.271
G0 X160.103 Y144.276
G0 X160.244 Y143.085
G0 X160.21 Y91.325
G0 X160.17 Y91.055
G0 X159.117 Y91.209
G1 F2400 E621.43341
G1 F1350 X159.049 Y90.898 E621.46518
G1 X158.996 Y90.722 E621.48352
G1 X158.886 Y90.425 E621.51512
G1 X158.806 Y90.252 E621.53414
G1 X158.653 Y89.968 E621.56633
G1 X158.56 Y89.823 E621.58352
G1 X158.357 Y89.553 E621.61722
G1 X158.184 Y89.351 E621.64376
G1 X158.064 Y89.22 E621.66149
G1 X157.904 Y89.068 E621.68351
G1 X157.702 Y88.901 E621.70966
G1 X157.527 Y88.77 E621.73147
G1 X157.252 Y88.596 E621.76394
G1 X156.748 Y88.287 E621.82293
G1 X156.213 Y87.868 E621.89074
G1 X155.742 Y87.39 E621.95769
G1 X155.611 Y87.238 E621.97772
G1 X155.485 Y87.107 E621.99585
G1 X155.375 Y87.003 E622.01096
G1 X155.152 Y86.817 E622.03993
G1 X154.977 Y86.689 E622.06157
G1 X154.713 Y86.521 E622.09279
G1 X154.541 Y86.428 E622.1123
G1 X154.251 Y86.298 E622.14401
G1 X154.138 Y86.256 E622.15604
G1 X159.121 Y91.239 E622.8592
G1 X159.152 Y91.46 E622.88146
G1 X159.171 Y91.665 E622.90201
G1 X159.179 Y91.843 E622.91978
G1 X159.179 Y92.711 E623.00639
G1 X152.502 Y86.034 E623.94859
G1 X151.088 Y86.034 E624.08968
G1 X159.179 Y94.125 E625.23141
G1 X159.179 Y95.54 E625.3726
G1 X149.673 Y86.034 E626.714
G1 X148.259 Y86.034 E626.85509
G1 X159.179 Y96.954 E628.39602
G1 X159.179 Y98.368 E628.5371
G1 X146.845 Y86.034 E630.27757
G1 X145.431 Y86.034 E630.41865
G1 X159.179 Y99.782 E632.35865
G1 X159.179 Y101.196 E632.49974
G1 X144.017 Y86.034 E634.63926
G1 X142.602 Y86.034 E634.78045
G1 X159.179 Y102.611 E637.11964
G1 X159.179 Y104.025 E637.26073
G1 X141.188 Y86.034 E639.79945
G1 X139.774 Y86.034 E639.94054
G1 X159.179 Y105.439 E642.6788
G1 X159.179 Y106.853 E642.81989
G1 X138.36 Y86.034 E645.75767
G1 X136.946 Y86.034 E645.89876
G1 X159.179 Y108.267 E649.03608
G1 X159.179 Y109.682 E649.17727
G1 X135.531 Y86.034 E652.51426
G1 X134.117 Y86.034 E652.65535
G1 X159.179 Y111.096 E656.19187
G1 X159.179 Y112.51 E656.33296
G1 X132.703 Y86.034 E660.06901
G1 X131.289 Y86.034 E660.21009
G1 X159.179 Y113.924 E664.14568
G1 X159.179 Y115.339 E664.28686
G1 X129.875 Y86.034 E668.42205
G1 X128.46 Y86.034 E668.56324
G1 X159.179 Y116.753 E672.89802
G1 X159.179 Y118.167 E673.03911
G1 X127.046 Y86.034 E677.57342
G1 X125.632 Y86.034 E677.71451
G1 X159.179 Y119.581 E682.44835
G1 X159.179 Y120.995 E682.58944
G1 X124.218 Y86.034 E687.52282
G1 X122.803 Y86.034 E687.66401
G1 X159.179 Y122.41 E692.79705
G1 X159.179 Y123.824 E692.93814
