;FLAVOR:Marlin
;TIME:26028
;Filament used: 17.3968m
;Layer height: 0.2
;MINX:75.889
;MINY:83.858
;MINZ:0.24
;MAXX:160.244
;MAXY:150.782
;MAXZ:56.25
;Generated with Cura_SteamEngine 4.10.0
M140 S60
M105
M190 S60
M104 S230
M105
M109 S230
M82 ;absolute extrusion mode
; Ender 3 Custom Start G-code
G92 E0 ; Reset Extruder
G28 ; Home all axes
G1 Z2.0 F3000 ; Move Z Axis up little to prevent scratching of Heat Bed
G1 X0.1 Y20 Z0.3 F5000.0 ; Move to start position
G1 X0.1 Y200.0 Z0.3 F1500.0 E15 ; Draw the first line
G1 X0.4 Y200.0 Z0.3 F5000.0 ; Move to side a little
G1 X0.4 Y20 Z0.3 F1500.0 E30 ; Draw the second line
G92 E0 ; Reset Extruder
G1 Z2.0 F3000 ; Move Z Axis up little to prevent scratching of Heat Bed
G1 X5 Y20 Z0.3 F5000.0 ; Move over to prevent blob squish
G92 E0
G92 E0
G1 F3000 E-5
;LAYER_COUNT:276
;LAYER:-6
M106 S63.8
G0 F9000 X78.272 Y86.804 Z0.24
;TYPE:SUPPORT-INTERFACE
G1 F3000 E0
G1 F1350 X78.486 Y86.615 E0.02279
G1 X78.643 Y86.488 E0.03891
G1 X79.051 Y86.189 E0.07929
G1 X79.203 Y86.088 E0.09386
G1 X79.51 Y85.903 E0.12247
G1 X79.819 Y85.735 E0.15054
G1 X80.088 Y85.611 E0.17419
G1 X80.365 Y85.504 E0.19789
G1 X80.549 Y85.46 E0.21299
G1 X81.255 Y85.193 E0.27324
G1 X81.612 Y85.088 E0.30295
G1 X81.882 Y85.029 E0.32501
G1 X82.075 Y84.994 E0.34067
G1 X82.365 Y84.954 E0.36403
G1 X82.655 Y84.925 E0.3873
G1 X83.077 Y84.904 E0.42103
G1 X83.252 Y84.9 E0.435
G1 X152.807 Y84.9 E5.98718
G1 X153.017 Y84.908 E6.00396
G1 X153.272 Y84.926 E6.02436
G1 X153.582 Y84.97 E6.04936
G1 X153.767 Y85.01 E6.06446
G1 X154.083 Y85.101 E6.09071
G1 X154.252 Y85.164 E6.10511
G1 X154.543 Y85.295 E6.13059
G1 X154.714 Y85.388 E6.14612
G1 X154.99 Y85.562 E6.17217
G1 X155.145 Y85.678 E6.18762
G1 X155.376 Y85.87 E6.2116
G1 X155.631 Y86.127 E6.2405
G1 X155.813 Y86.336 E6.26262
G1 X156.009 Y86.596 E6.28861
G1 X156.106 Y86.748 E6.303
G1 X156.354 Y87.199 E6.34409
G1 X156.572 Y87.605 E6.38087
G1 X156.969 Y88.16 E6.43534
G1 X157.429 Y88.657 E6.4894
G1 X157.702 Y88.9 E6.51858
G1 X157.907 Y89.069 E6.53978
G1 X158.185 Y89.351 E6.57139
G1 X158.359 Y89.554 E6.59274
G1 X158.561 Y89.824 E6.61965
G1 X158.654 Y89.968 E6.63334
G1 X158.807 Y90.252 E6.65909
G1 X158.887 Y90.425 E6.6743
G1 X158.998 Y90.725 E6.69984
G1 X159.05 Y90.899 E6.71433
G1 X159.118 Y91.213 E6.73998
G1 X159.174 Y91.678 E6.77736
G1 X159.18 Y91.842 E6.79046
G1 X159.18 Y143.058 E10.87875
G1 X159.172 Y143.268 E10.89552
G1 X159.154 Y143.523 E10.91593
G1 X159.11 Y143.833 E10.94092
G1 X159.07 Y144.018 E10.95603
G1 X158.979 Y144.334 E10.98228
G1 X158.916 Y144.503 E10.99668
G1 X158.785 Y144.794 E11.02215
G1 X158.692 Y144.965 E11.03769
G1 X158.518 Y145.241 E11.06373
G1 X158.402 Y145.396 E11.07919
G1 X158.21 Y145.627 E11.10317
G1 X157.961 Y145.876 E11.13127
G1 X157.598 Y146.191 E11.16964
G1 X157.121 Y146.662 E11.22315
G1 X156.698 Y147.204 E11.27803
G1 X156.552 Y147.461 E11.30163
G1 X156.542 Y147.454 E11.3026
G1 X156.157 Y148.166 E11.36721
G1 X155.978 Y148.45 E11.39401
G1 X155.862 Y148.606 E11.40953
G1 X155.687 Y148.818 E11.43147
G1 X155.413 Y149.091 E11.46235
G1 X155.208 Y149.27 E11.48407
G1 X154.934 Y149.476 E11.51143
G1 X154.808 Y149.557 E11.52339
G1 X154.503 Y149.725 E11.55119
G1 X154.339 Y149.8 E11.56558
G1 X154.043 Y149.913 E11.59087
G1 X153.868 Y149.965 E11.60545
G1 X153.541 Y150.037 E11.63217
G1 X153.323 Y150.07 E11.64977
G1 X153.069 Y150.094 E11.67014
G1 X152.857 Y150.1 E11.68707
G1 X83.231 Y150.1 E17.24492
G1 X82.837 Y150.085 E17.27639
G1 X82.579 Y150.059 E17.29709
G1 X82.228 Y150.028 E17.32522
G1 X81.89 Y149.974 E17.35254
G1 X81.599 Y149.909 E17.37634
G1 X81.297 Y149.82 E17.40147
G1 X80.576 Y149.55 E17.46293
G1 X80.44 Y149.516 E17.47412
G1 X80.095 Y149.388 E17.50349
G1 X79.79 Y149.249 E17.53025
G1 X79.514 Y149.099 E17.55532
G1 X79.241 Y148.936 E17.5807
G1 X79.07 Y148.824 E17.59702
G1 X78.664 Y148.527 E17.63718
G1 X78.504 Y148.399 E17.65353
G1 X78.286 Y148.208 E17.67667
G1 X78.171 Y148.099 E17.68932
G1 X77.967 Y147.891 E17.71257
G1 X77.759 Y147.649 E17.73804
G1 X77.644 Y147.495 E17.75339
G1 X77.479 Y147.236 E17.7779
G1 X77.35 Y146.998 E17.79951
G1 X77.263 Y146.807 E17.81626
G1 X77.164 Y146.547 E17.83847
G1 X77.071 Y146.237 E17.86431
G1 X77.033 Y146.07 E17.87798
G1 X76.983 Y145.728 E17.90557
G1 X76.959 Y145.428 E17.92959
G1 X76.953 Y145.254 E17.94349
G1 X76.952 Y144.555 E17.99929
G1 X76.96 Y138.202 E18.50641
G1 X76.96 Y96.777 E21.81313
G1 X76.952 Y89.744 E22.37454
G1 X76.958 Y89.57 E22.38844
G1 X76.976 Y89.307 E22.40948
G1 X77.024 Y88.971 E22.43657
G1 X77.059 Y88.809 E22.4498
G1 X77.157 Y88.473 E22.47774
G1 X77.25 Y88.22 E22.49926
G1 X77.339 Y88.021 E22.51666
G1 X77.48 Y87.762 E22.5402
G1 X77.65 Y87.497 E22.56533
G1 X77.774 Y87.33 E22.58193
G1 X77.964 Y87.109 E22.6052
G1 X78.156 Y86.914 E22.62704
G1 X78.272 Y86.804 E22.6398
G0 F9000 X78.4 Y86.69
G1 F1350 X78.4 Y148.307 E27.55834
G0 F9000 X80 Y149.344
G1 F1350 X80 Y85.651 E32.64259
G0 F9000 X81.6 Y85.091
G1 F1350 X81.6 Y149.909 E37.81664
G0 F9000 X83.2 Y150.098
G1 F1350 X83.2 Y84.901 E43.02095
G0 F9000 X84.8 Y84.9
G1 F1350 X84.8 Y150.1 E48.2255
G0 F9000 X86.4 Y150.1
G1 F1350 X86.4 Y84.9 E53.43004
G0 F9000 X88 Y84.9
G1 F1350 X88 Y150.1 E58.63459
G0 F9000 X89.6 Y150.1
G1 F1350 X89.6 Y84.9 E63.83913
G0 F9000 X91.2 Y84.9
G1 F1350 X91.2 Y150.1 E69.04368
G0 F9000 X92.8 Y150.1
G1 F1350 X92.8 Y84.9 E74.24823
G0 F9000 X94.4 Y84.9
G1 F1350 X94.4 Y150.1 E79.45277
G0 F9000 X96 Y150.1
G1 F1350 X96 Y84.9 E84.65732
G0 F9000 X97.6 Y84.9
G1 F1350 X97.6 Y150.1 E89.86186
G0 F9000 X99.2 Y150.1
G1 F1350 X99.2 Y84.9 E95.06641
G0 F9000 X100.8 Y84.9
G1 F1350 X100.8 Y150.1 E100.27096
G0 F9000 X102.4 Y150.1
G1 F1350 X102.4 Y84.9 E105.4755
G0 F9000 X104 Y84.9
G1 F1350 X104 Y150.1 E110.68005
G0 F9000 X105.6 Y150.1
G1 F1350 X105.6 Y84.9 E115.88459
G0 F9000 X107.2 Y84.9
G1 F1350 X107.2 Y150.1 E121.08914
G0 F9000 X108.8 Y150.1
G1 F1350 X108.8 Y84.9 E126.29368
G0 F9000 X110.4 Y84.9
G1 F1350 X110.4 Y150.1 E131.49823
G0 F9000 X112 Y150.1
G1 F1350 X112 Y84.9 E136.70278
G0 F9000 X113.6 Y84.9
G1 F1350 X113.6 Y150.1 E141.90732
G0 F9000 X115.2 Y150.1
G1 F1350 X115.2 Y84.9 E147.11187
G0 F9000 X116.8 Y84.9
G1 F1350 X116.8 Y150.1 E152.31641
G0 F9000 X118.4 Y150.1
G1 F1350 X118.4 Y84.9 E157.52096
G0 F9000 X120 Y84.9
G1 F1350 X120 Y150.1 E162.72551
G0 F9000 X121.6 Y150.1
G1 F1350 X121.6 Y84.9 E167.93005
G0 F9000 X123.2 Y84.9
G1 F1350 X123.2 Y150.1 E173.1346
G0 F9000 X124.8 Y150.1
G1 F1350 X124.8 Y84.9 E178.33914
G0 F9000 X126.4 Y84.9
G1 F1350 X126.4 Y150.1 E183.54369
G0 F9000 X128 Y150.1
G1 F1350 X128 Y84.9 E188.74824
G0 F9000 X129.6 Y84.9
G1 F1350 X129.6 Y150.1 E193.95278
G0 F9000 X131.2 Y150.1
G1 F1350 X131.2 Y84.9 E199.15733
G0 F9000 X132.8 Y84.9
G1 F1350 X132.8 Y150.1 E204.36187
G0 F9000 X134.4 Y150.1
G1 F1350 X134.4 Y84.9 E209.56642
G0 F9000 X136 Y84.9
G1 F1350 X136 Y150.1 E214.77097
G0 F9000 X137.6 Y150.1
G1 F1350 X137.6 Y84.9 E219.97551
G0 F9000 X139.2 Y84.9
G1 F1350 X139.2 Y150.1 E225.18006
G0 F9000 X140.8 Y150.1
G1 F1350 X140.8 Y84.9 E230.3846
G0 F9000 X142.4 Y84.9
G1 F1350 X142.4 Y150.1 E235.58915
G0 F9000 X144 Y150.1
G1 F1350 X144 Y84.9 E240.7937
G0 F9000 X145.6 Y84.9
G1 F1350 X145.6 Y150.1 E245.99824
G0 F9000 X147.2 Y150.1
G1 F1350 X147.2 Y84.9 E251.20279
G0 F9000 X148.8 Y84.9
G1 F1350 X148.8 Y150.1 E256.40733
G0 F9000 X150.4 Y150.1
G1 F1350 X150.4 Y84.9 E261.61188
G0 F9000 X152 Y84.9
G1 F1350 X152 Y150.1 E266.81642
G0 F9000 X153.6 Y150.025
G1 F1350 X153.6 Y84.974 E272.00908
G0 F9000 X155.2 Y85.724
G1 F1350 X155.2 Y149.277 E277.08215
G0 F9000 X156.8 Y147.074
G1 F1350 X156.8 Y87.924 E281.80376
G0 F9000 X158.4 Y89.609
G1 F1350 X158.4 Y145.399 E286.25716
G0 F300 X158.4 Y145.399 Z0.54
G0 F9000 X158.401 Y145.396
;TIME_ELAPSED:170.062457
;LAYER:-5
;TYPE:SUPPORT
G1 F1350 X158.275 Y145.548 E286.27686
G1 X97.628 Y84.9 E294.83488
G1 X96.213 Y84.9 E294.97607
G1 X157.55 Y146.236 E303.63131
G1 X157.12 Y146.662 E303.69171
G1 X156.875 Y146.976 E303.73145
G1 X94.799 Y84.9 E312.49104
G1 X93.385 Y84.9 E312.63213
G1 X156.329 Y147.844 E321.51421
G1 X156.156 Y148.165 E321.55059
G1 X155.977 Y148.449 E321.58409
G1 X155.861 Y148.606 E321.60357
G1 X155.778 Y148.707 E321.61661
G1 X91.971 Y84.9 E330.62047
G1 X90.557 Y84.9 E330.76156
G1 X155.046 Y149.389 E339.86165
G1 X154.933 Y149.476 E339.87588
G1 X154.807 Y149.556 E339.89077
G1 X154.502 Y149.724 E339.92552
G1 X154.338 Y149.799 E339.94351
G1 X154.123 Y149.881 E339.96647
G1 X89.142 Y84.9 E349.13599
G1 X87.728 Y84.9 E349.27708
G1 X152.925 Y150.097 E358.47708
G1 X152.855 Y150.099 E358.48407
G1 X151.513 Y150.098 E358.61798
G1 X86.314 Y84.9 E367.81819
G1 X84.9 Y84.9 E367.95928
G1 X150.098 Y150.098 E377.15942
G1 X148.684 Y150.098 E377.30051
G1 X83.485 Y84.9 E386.50072
G1 X83.251 Y84.899 E386.52407
G1 X83.077 Y84.903 E386.54144
G1 X82.72 Y84.919 E386.5771
G1 X82.474 Y84.939 E386.60172
G1 X82.365 Y84.953 E386.61269
G1 X82.154 Y84.982 E386.63394
G1 X147.27 Y150.098 E395.82251
G1 X145.856 Y150.098 E395.9636
G1 X81.033 Y85.276 E405.11075
G1 X80.549 Y85.459 E405.16239
G1 X80.545 Y85.448 E405.16355
G1 X80.365 Y85.503 E405.18233
G1 X80.087 Y85.61 E405.21206
G1 X79.993 Y85.65 E405.22225
G1 X144.442 Y150.098 E414.31663
G1 X143.027 Y150.098 E414.45782
G1 X79.091 Y86.162 E423.47988
G1 X79.051 Y86.188 E423.48464
G1 X78.643 Y86.487 E423.53511
G1 X78.486 Y86.614 E423.55526
G1 X78.297 Y86.782 E423.58049
G1 X141.613 Y150.098 E432.51506
G1 X140.199 Y150.098 E432.65615
G1 X77.629 Y87.528 E441.48546
G1 X77.479 Y87.761 E441.51311
G1 X77.339 Y88.02 E441.54248
G1 X77.297 Y88.106 E441.55203
G1 X77.25 Y88.218 E441.56415
G1 X77.157 Y88.471 E441.59105
G1 X138.785 Y150.098 E450.28735
G1 X137.371 Y150.098 E450.42844
G1 X76.953 Y89.681 E458.95401
G1 X76.951 Y89.743 E458.96019
G1 X76.953 Y91.095 E459.0951
G1 X135.956 Y150.098 E467.42106
G1 X134.542 Y150.098 E467.56215
G1 X76.954 Y92.51 E475.68844
G1 X76.956 Y93.927 E475.82983
G1 X133.128 Y150.098 E483.75623
G1 X131.714 Y150.098 E483.89732
G1 X76.957 Y95.342 E491.62405
G1 X76.959 Y96.758 E491.76534
G1 X130.299 Y150.098 E499.29219
G1 X128.885 Y150.098 E499.43328
G1 X76.96 Y98.173 E506.76046
G1 X76.96 Y99.587 E506.90155
G1 X127.471 Y150.098 E514.0292
G1 X126.057 Y150.098 E514.17029
G1 X76.96 Y101.001 E521.09841
G1 X76.96 Y102.415 E521.2395
G1 X124.643 Y150.098 E527.96808
G1 X123.228 Y150.098 E528.10927
G1 X76.96 Y103.83 E534.63819
G1 X76.96 Y105.244 E534.77928
G1 X121.814 Y150.098 E541.10866
G1 X120.4 Y150.098 E541.24975
G1 X76.96 Y106.658 E547.3796
G1 X76.96 Y108.072 E547.52069
G1 X118.986 Y150.098 E553.45101
G1 X117.572 Y150.098 E553.5921
G1 X76.96 Y109.486 E559.3229
G1 X76.96 Y110.901 E559.46408
G1 X116.157 Y150.098 E564.9952
G1 X114.743 Y150.098 E565.13629
G1 X76.96 Y112.315 E570.46788
G1 X76.96 Y113.729 E570.60897
G1 X113.329 Y150.098 E575.74103
G1 X111.915 Y150.098 E575.88212
G1 X76.96 Y115.143 E580.81465
G1 X76.96 Y116.558 E580.95584
G1 X110.5 Y150.098 E585.68869
G1 X109.086 Y150.098 E585.82978
G1 X76.96 Y117.972 E590.36311
G1 X76.96 Y119.386 E590.5042
G1 X107.672 Y150.098 E594.83799
G1 X106.258 Y150.098 E594.97908
G1 X76.96 Y120.8 E599.11335
G1 X76.96 Y122.214 E599.25444
G1 X104.844 Y150.098 E603.18917
G1 X103.429 Y150.098 E603.33036
G1 X76.96 Y123.629 E607.06542
G1 X76.96 Y125.043 E607.20651
G1 X102.015 Y150.098 E610.74204
G1 X100.601 Y150.098 E610.88313
G1 X76.96 Y126.457 E614.21913
G1 X76.96 Y127.871 E614.36022
G1 X99.187 Y150.098 E617.49669
G1 X97.773 Y150.098 E617.63778
G1 X76.96 Y129.285 E620.57472
G1 X76.96 Y130.7 E620.71591
G1 X96.358 Y150.098 E623.45318
G1 X94.944 Y150.098 E623.59427
G1 X76.96 Y132.114 E626.132
G1 X76.96 Y133.528 E626.27309
G1 X93.53 Y150.098 E628.6113
G1 X92.116 Y150.098 E628.75239
G1 X76.96 Y134.942 E630.89106
G1 X76.96 Y136.357 E631.03225
G1 X90.702 Y150.098 E632.97133
G1 X89.287 Y150.098 E633.11252
G1 X76.96 Y137.771 E634.85199
G1 X76.96 Y138.201 E634.8949
G1 X76.958 Y139.184 E634.99298
G1 X87.873 Y150.098 E636.53313
G1 X86.459 Y150.098 E636.67422
G1 X76.956 Y140.596 E638.01513
G1 X76.955 Y142.008 E638.15602
G1 X85.045 Y150.098 E639.2976
G1 X83.63 Y150.098 E639.43879
G1 X76.953 Y143.421 E640.38099
G1 X76.952 Y144.554 E640.49404
G1 X76.952 Y144.834 E640.52198
G1 X82.129 Y150.011 E641.25251
G1 X82.02 Y149.995 E641.2635
G1 X81.89 Y149.971 E641.27669
G1 X81.598 Y149.908 E641.3065
G1 X81.296 Y149.819 E641.33792
G1 X80.576 Y149.548 E641.41468
G1 X80.57 Y149.561 E641.41611
G1 X80.477 Y149.526 E641.42602
G1 X80.439 Y149.515 E641.42997
G1 X80.094 Y149.386 E641.46672
G1 X80.086 Y149.383 E641.46757
G1 X77.126 Y146.423 E641.88526
G0 F9000 X77.163 Y146.546
G1 F1350 X77.262 Y146.806 E641.91302
G1 X77.31 Y146.919 E641.92527
G1 X77.349 Y146.996 E641.93388
G1 X77.479 Y147.235 E641.96103
G1 X77.643 Y147.494 E641.99162
G1 X77.759 Y147.648 E642.01086
G1 X77.967 Y147.889 E642.04262
G1 X78.171 Y148.098 E642.07176
G1 X78.285 Y148.207 E642.0875
G1 X78.503 Y148.398 E642.11642
G1 X78.664 Y148.526 E642.13694
G1 X79.07 Y148.823 E642.18714
G1 X79.241 Y148.935 E642.20753
G1 X79.513 Y149.098 E642.23917
G1 X79.605 Y149.149 E642.24967
G1 X79.902 Y149.306 E642.28319
G1 X80.086 Y149.383 E642.30309
G1 F3000 E637.30309
G0 F9000 X79.715 Y150.383
G0 X78.463 Y149.698
G0 X77.42 Y148.854
G0 X76.767 Y148.097
G0 X76.272 Y147.196
G0 X75.985 Y146.263
G0 X75.889 Y145.281
G0 X75.917 Y89.196
G0 X76.144 Y88.145
G0 X76.565 Y87.217
G0 X77.182 Y86.386
G0 X78.002 Y85.638
G0 X79.332 Y84.789
G0 X81.17 Y84.071
G0 X82.664 Y83.858
G0 X153.383 Y83.867
G0 X154.218 Y84.047
G0 X155.02 Y84.343
G0 X154.651 Y85.354
G1 F3000 E642.30309
G1 F1350 X154.542 Y85.295 E642.31546
G1 X154.251 Y85.163 E642.34734
G1 X154.082 Y85.101 E642.36531
G1 X153.766 Y85.009 E642.39815
G1 X153.581 Y84.969 E642.41703
G1 X153.271 Y84.926 E642.44826
G1 X153.016 Y84.907 E642.47377
G1 X152.806 Y84.9 E642.49474
G1 X152.782 Y84.9 E642.49713
G1 X159.121 Y91.239 E643.39164
G1 X159.152 Y91.46 E643.4139
G1 X159.173 Y91.678 E643.43576
G1 X159.179 Y91.841 E643.45203
G1 X159.179 Y92.711 E643.53884
G1 X151.368 Y84.9 E644.64106
G1 X149.954 Y84.9 E644.78215
G1 X159.179 Y94.125 E646.08389
G1 X159.179 Y95.54 E646.22508
G1 X148.539 Y84.9 E647.7265
G1 X147.125 Y84.9 E647.86759
G1 X159.179 Y96.954 E649.56854
G1 X159.179 Y98.368 E649.70963
G1 X145.711 Y84.9 E651.61011
G1 X144.297 Y84.9 E651.7512
G1 X159.179 Y99.782 E653.85121
G1 X159.179 Y101.196 E653.9923
G1 X142.882 Y84.9 E656.29191
G1 X141.468 Y84.9 E656.433
G1 X159.179 Y102.611 E658.93222
G1 X159.179 Y104.025 E659.0733
G1 X140.054 Y84.9 E661.77205
G1 X138.64 Y84.9 E661.91314
G1 X159.179 Y105.439 E664.81141
G1 X159.179 Y106.853 E664.9525
G1 X137.226 Y84.9 E668.05031
G1 X135.811 Y84.9 E668.1915
G1 X159.179 Y108.267 E671.4889
G1 X159.179 Y109.682 E671.63009
G1 X134.397 Y84.9 E675.1271
G1 X132.983 Y84.9 E675.26819
G1 X159.179 Y111.096 E678.96473
G1 X159.179 Y112.51 E679.10582
G1 X131.569 Y84.9 E683.00189
G1 X130.155 Y84.9 E683.14298
G1 X159.179 Y113.924 E687.23858
G1 X159.179 Y115.339 E687.37977
G1 X128.74 Y84.9 E691.67504
G1 X127.326 Y84.9 E691.81613
G1 X159.179 Y116.753 E696.31093
G1 X159.179 Y118.167 E696.45202
G1 X125.912 Y84.9 E701.14635
G1 X124.498 Y84.9 E701.28744
G1 X159.179 Y119.581 E706.18131
G1 X159.179 Y120.995 E706.3224
G1 X123.083 Y84.9 E711.41586
G1 X121.669 Y84.9 E711.55695
G1 X159.179 Y122.41 E716.85002
G1 X159.179 Y123.824 E716.99111
G1 X120.255 Y84.9 E722.4837
G1 X118.841 Y84.9 E722.62479
G1 X159.179 Y125.238 E728.31692
G1 X159.179 Y126.652 E728.45801
G1 X117.427 Y84.9 E734.34967
G1 X116.012 Y84.9 E734.49086
G1 X159.179 Y128.066 E740.58212
G1 X159.179 Y129.481 E740.72331
G1 X114.598 Y84.9 E747.01417
G1 X113.184 Y84.9 E747.15526
G1 X159.179 Y130.895 E753.64565
G1 X159.179 Y132.309 E753.78674
