;FLAVOR:Marlin
;TIME:22188
;Filament used: 15.2829m
;Layer height: 0.2
;MINX:75.62
;MINY:84.7
;MINZ:0.2
;MAXX:159.38
;MAXY:150.3
;MAXZ:55.2
;Generated with Cura_SteamEngine 4.10.0
M140 S60
M105
M190 S60
M104 S220
M105
M109 S220
M82 ;absolute extrusion mode
; Ender 3 Custom Start G-code
G92 E0 ; Reset Extruder
G28 ; Home all axes
G1 Z2.0 F3000 ; Move Z Axis up little to prevent scratching of Heat Bed
G1 X0.1 Y20 Z0.3 F5000.0 ; Move to start position
G1 X0.1 Y200.0 Z0.3 F1500.0 E15 ; Draw the first line
G1 X0.4 Y200.0 Z0.3 F5000.0 ; Move to side a little
G1 X0.4 Y20 Z0.3 F1500.0 E30 ; Draw the second line
G92 E0 ; Reset Extruder
G1 Z2.0 F3000 ; Move Z Axis up little to prevent scratching of Heat Bed
G1 X5 Y20 Z0.3 F5000.0 ; Move over to prevent blob squish
G92 E0
G92 E0
G1 F3000 E-5
;LAYER_COUNT:276
;LAYER:0
M106 S63.8
G0 F6000 X78.023 Y86.766 Z0.2
;TYPE:SKIRT
G1 F3000 E0
G1 F1200 X78.294 Y86.524 E0.01208
G1 X78.599 Y86.276 E0.02516
G1 X78.933 Y86.033 E0.0389
G1 X79.264 Y85.819 E0.05201
G1 X79.605 Y85.622 E0.0651
G1 X79.967 Y85.438 E0.07861
G1 X80.328 Y85.278 E0.09174
G1 X80.693 Y85.138 E0.10475
G1 X81.073 Y85.015 E0.11803
G1 X81.462 Y84.911 E0.13142
G1 X81.863 Y84.827 E0.14505
G1 X82.258 Y84.766 E0.15834
G1 X82.637 Y84.726 E0.17102
G1 X83.033 Y84.705 E0.18421
G1 X83.234 Y84.7 E0.1909
G1 X152.923 Y84.7 E2.50876
G1 X153.473 Y84.74 E2.5271
G1 X154.011 Y84.859 E2.54543
G1 X154.526 Y85.055 E2.56376
G1 X155.007 Y85.323 E2.58207
G1 X155.61 Y85.813 E2.60791
G1 X155.727 Y85.93 E2.61342
G1 X156.087 Y86.347 E2.63174
G1 X156.384 Y86.811 E2.65006
G1 X156.61 Y87.314 E2.6684
G1 X156.761 Y87.844 E2.68673
G1 X156.793 Y88.16 E2.6973
G1 X157.066 Y88.264 E2.70701
G1 X157.547 Y88.532 E2.72533
G1 X158.161 Y89.033 E2.75169
G1 X158.278 Y89.151 E2.75721
G1 X158.637 Y89.57 E2.77556
G1 X158.931 Y90.036 E2.79389
G1 X159.155 Y90.539 E2.8122
G1 X159.304 Y91.07 E2.83055
G1 X159.38 Y91.827 E2.85585
G1 X159.38 Y143.174 E4.56366
G1 X159.34 Y143.724 E4.582
G1 X159.221 Y144.262 E4.60033
G1 X159.025 Y144.777 E4.61866
G1 X158.757 Y145.258 E4.63697
G1 X158.267 Y145.861 E4.66281
G1 X158.15 Y145.978 E4.66832
G1 X157.733 Y146.338 E4.68664
G1 X157.269 Y146.635 E4.70496
G1 X156.807 Y146.843 E4.72181
G1 X156.8 Y146.933 E4.72482
G1 X156.681 Y147.471 E4.74314
G1 X156.485 Y147.986 E4.76147
G1 X156.217 Y148.467 E4.77978
G1 X155.727 Y149.07 E4.80563
G1 X155.61 Y149.187 E4.81113
G1 X155.193 Y149.547 E4.82945
G1 X154.729 Y149.844 E4.84778
G1 X154.226 Y150.07 E4.86612
G1 X153.696 Y150.221 E4.88445
G1 X152.923 Y150.3 E4.91029
G1 X83.228 Y150.3 E7.22836
G1 X83.012 Y150.294 E7.23554
G1 X82.608 Y150.271 E7.249
G1 X82.24 Y150.232 E7.26131
G1 X81.848 Y150.171 E7.2745
G1 X81.436 Y150.083 E7.28852
G1 X81.053 Y149.979 E7.30172
G1 X80.679 Y149.857 E7.3148
G1 X80.296 Y149.709 E7.32846
G1 X79.932 Y149.546 E7.34172
G1 X79.577 Y149.364 E7.35499
G1 X79.233 Y149.164 E7.36823
G1 X78.916 Y148.957 E7.38082
G1 X78.598 Y148.724 E7.39393
G1 X78.278 Y148.464 E7.40764
G1 X77.968 Y148.183 E7.42156
G1 X77.686 Y147.897 E7.43492
G1 X77.444 Y147.626 E7.447
G1 X77.196 Y147.321 E7.46008
G1 X76.953 Y146.987 E7.47382
G1 X76.739 Y146.656 E7.48692
G1 X76.542 Y146.315 E7.50002
G1 X76.358 Y145.953 E7.51353
G1 X76.197 Y145.588 E7.5268
G1 X76.054 Y145.214 E7.54012
G1 X75.931 Y144.833 E7.55343
G1 X75.83 Y144.453 E7.56651
G1 X75.746 Y144.056 E7.58001
G1 X75.685 Y143.66 E7.59333
G1 X75.646 Y143.28 E7.60604
G1 X75.625 Y142.88 E7.61936
G1 X75.62 Y142.681 E7.62598
G1 X75.62 Y92.319 E9.30103
G1 X75.626 Y92.109 E9.30802
G1 X75.649 Y91.694 E9.32184
G1 X75.688 Y91.32 E9.33435
G1 X75.749 Y90.928 E9.34754
G1 X75.837 Y90.516 E9.36155
G1 X75.941 Y90.133 E9.37475
G1 X76.063 Y89.761 E9.38777
G1 X76.21 Y89.38 E9.40136
G1 X76.373 Y89.015 E9.41465
G1 X76.556 Y88.658 E9.428
G1 X76.756 Y88.313 E9.44126
G1 X76.963 Y87.996 E9.45385
G1 X77.194 Y87.68 E9.46687
G1 X77.452 Y87.362 E9.48049
G1 X77.735 Y87.05 E9.4945
G1 X78.023 Y86.766 E9.50795
G0 F6000 X78.304 Y87.051
G1 F1200 X78.546 Y86.834 E9.51876
G1 X78.851 Y86.586 E9.53184
G1 X79.15 Y86.369 E9.54413
G1 X79.481 Y86.155 E9.55724
G1 X79.786 Y85.979 E9.56895
G1 X80.148 Y85.795 E9.58245
G1 X80.471 Y85.652 E9.5942
G1 X80.836 Y85.512 E9.60721
G1 X81.176 Y85.401 E9.6191
G1 X81.565 Y85.297 E9.63249
G1 X81.924 Y85.222 E9.64469
G1 X82.319 Y85.161 E9.65799
G1 X82.658 Y85.126 E9.66932
G1 X83.054 Y85.105 E9.68251
G1 X83.234 Y85.1 E9.6885
G1 X152.923 Y85.1 E12.00636
G1 X153.443 Y85.14 E12.02371
G1 X153.95 Y85.259 E12.04103
G1 X154.433 Y85.454 E12.05836
G1 X154.881 Y85.72 E12.07569
G1 X155.327 Y86.096 E12.09509
G1 X155.444 Y86.213 E12.10059
G1 X155.783 Y86.609 E12.11793
G1 X156.058 Y87.051 E12.13524
G1 X156.262 Y87.531 E12.15259
G1 X156.39 Y88.036 E12.16992
G1 X156.426 Y88.453 E12.18384
G1 X156.49 Y88.468 E12.18603
G1 X156.973 Y88.663 E12.20335
G1 X157.421 Y88.929 E12.22068
G1 X157.877 Y89.315 E12.24055
G1 X157.994 Y89.433 E12.24608
G1 X158.332 Y89.83 E12.26342
G1 X158.605 Y90.274 E12.28075
G1 X158.806 Y90.755 E12.29809
G1 X158.932 Y91.26 E12.3154
G1 X158.98 Y91.827 E12.33433
G1 X158.98 Y143.174 E14.04214
G1 X158.94 Y143.694 E14.05948
G1 X158.821 Y144.201 E14.07681
G1 X158.626 Y144.684 E14.09413
G1 X158.36 Y145.132 E14.11146
G1 X157.984 Y145.578 E14.13086
G1 X157.867 Y145.695 E14.13636
G1 X157.471 Y146.034 E14.1537
G1 X157.029 Y146.309 E14.17102
G1 X156.549 Y146.513 E14.18836
G1 X156.428 Y146.544 E14.19252
G1 X156.4 Y146.903 E14.20449
G1 X156.281 Y147.41 E14.22182
G1 X156.086 Y147.893 E14.23914
G1 X155.82 Y148.341 E14.25647
G1 X155.444 Y148.787 E14.27587
G1 X155.327 Y148.904 E14.28138
G1 X154.931 Y149.243 E14.29871
G1 X154.489 Y149.518 E14.31603
G1 X154.009 Y149.722 E14.33337
G1 X153.504 Y149.85 E14.3507
G1 X152.923 Y149.9 E14.3701
G1 X83.228 Y149.9 E16.68816
G1 X83.035 Y149.895 E16.69458
G1 X82.631 Y149.872 E16.70804
G1 X82.301 Y149.837 E16.71908
G1 X81.909 Y149.776 E16.73227
G1 X81.541 Y149.697 E16.74479
G1 X81.158 Y149.593 E16.75799
G1 X80.823 Y149.483 E16.76972
G1 X80.44 Y149.335 E16.78338
G1 X80.115 Y149.19 E16.79521
G1 X79.76 Y149.008 E16.80848
G1 X79.452 Y148.829 E16.82033
G1 X79.135 Y148.622 E16.83292
G1 X78.85 Y148.414 E16.84466
G1 X78.53 Y148.154 E16.85837
G1 X78.253 Y147.902 E16.87083
G1 X77.971 Y147.616 E16.88419
G1 X77.754 Y147.374 E16.895
G1 X77.506 Y147.069 E16.90807
G1 X77.289 Y146.77 E16.92036
G1 X77.075 Y146.439 E16.93347
G1 X76.899 Y146.134 E16.94518
G1 X76.715 Y145.772 E16.95869
G1 X76.57 Y145.445 E16.97058
G1 X76.427 Y145.071 E16.9839
G1 X76.317 Y144.73 E16.99582
G1 X76.216 Y144.35 E17.0089
G1 X76.142 Y143.995 E17.02096
G1 X76.081 Y143.599 E17.03428
G1 X76.046 Y143.259 E17.04565
G1 X76.025 Y142.859 E17.05898
G1 X76.02 Y142.681 E17.0649
G1 X76.02 Y92.319 E18.73994
G1 X76.025 Y92.131 E18.7462
G1 X76.048 Y91.716 E18.76002
G1 X76.083 Y91.381 E18.77123
G1 X76.144 Y90.989 E18.78442
G1 X76.223 Y90.621 E18.79694
G1 X76.327 Y90.238 E18.81014
G1 X76.436 Y89.905 E18.82179
G1 X76.583 Y89.524 E18.83538
G1 X76.729 Y89.197 E18.84729
G1 X76.912 Y88.84 E18.86063
G1 X77.091 Y88.532 E18.87248
G1 X77.298 Y88.215 E18.88507
G1 X77.505 Y87.932 E18.89673
G1 X77.763 Y87.614 E18.91035
G1 X78.016 Y87.335 E18.92288
G1 X78.304 Y87.051 E18.93633
G0 F6000 X78.585 Y87.336
G1 F1200 X78.798 Y87.144 E18.94587
G1 X79.103 Y86.896 E18.95895
G1 X79.367 Y86.705 E18.96978
G1 X79.698 Y86.491 E18.98289
G1 X79.968 Y86.336 E18.99325
G1 X80.33 Y86.152 E19.00675
G1 X80.615 Y86.025 E19.01713
G1 X80.98 Y85.885 E19.03013
G1 X81.279 Y85.788 E19.04059
G1 X81.668 Y85.684 E19.05398
G1 X81.985 Y85.617 E19.06476
G1 X82.38 Y85.556 E19.07805
G1 X82.679 Y85.525 E19.08805
G1 X83.075 Y85.504 E19.10124
G1 X83.234 Y85.5 E19.10653
G1 X152.923 Y85.5 E21.42439
G1 X153.411 Y85.54 E21.44068
G1 X153.886 Y85.659 E21.45697
G1 X154.335 Y85.853 E21.47323
G1 X154.747 Y86.118 E21.48953
G1 X155.044 Y86.379 E21.50268
G1 X155.161 Y86.496 E21.50818
G1 X155.478 Y86.869 E21.52446
G1 X155.73 Y87.289 E21.54075
G1 X155.91 Y87.744 E21.55703
G1 X156.014 Y88.222 E21.5733
G1 X156.04 Y88.617 E21.58646
G1 X156.04 Y88.771 E21.59159
G1 X156.426 Y88.868 E21.60482
G1 X156.875 Y89.062 E21.62109
G1 X157.287 Y89.327 E21.63739
G1 X157.593 Y89.597 E21.65096
G1 X157.71 Y89.715 E21.65649
G1 X158.025 Y90.089 E21.67275
G1 X158.276 Y90.51 E21.68905
G1 X158.454 Y90.966 E21.70533
G1 X158.556 Y91.445 E21.72162
G1 X158.58 Y91.827 E21.73435
G1 X158.58 Y143.174 E23.44216
G1 X158.54 Y143.662 E23.45845
G1 X158.421 Y144.137 E23.47473
G1 X158.227 Y144.586 E23.491
G1 X157.962 Y144.998 E23.50729
G1 X157.701 Y145.295 E23.52044
G1 X157.584 Y145.412 E23.52595
G1 X157.211 Y145.729 E23.54223
G1 X156.791 Y145.981 E23.55852
G1 X156.336 Y146.161 E23.57479
G1 X156.04 Y146.225 E23.58487
G1 X156.04 Y146.383 E23.59012
G1 X156 Y146.871 E23.60641
G1 X155.881 Y147.346 E23.62269
G1 X155.687 Y147.795 E23.63896
G1 X155.422 Y148.207 E23.65525
G1 X155.161 Y148.504 E23.6684
G1 X155.044 Y148.621 E23.67391
G1 X154.671 Y148.938 E23.69019
G1 X154.251 Y149.19 E23.70648
G1 X153.796 Y149.37 E23.72275
G1 X153.318 Y149.474 E23.73903
G1 X152.923 Y149.5 E23.75219
G1 X83.228 Y149.5 E26.07026
G1 X83.057 Y149.495 E26.07595
G1 X82.653 Y149.472 E26.08941
G1 X82.363 Y149.441 E26.09911
G1 X81.971 Y149.38 E26.1123
G1 X81.646 Y149.311 E26.12335
G1 X81.263 Y149.207 E26.13655
G1 X80.968 Y149.11 E26.14688
G1 X80.585 Y148.962 E26.16054
G1 X80.297 Y148.834 E26.17102
G1 X79.942 Y148.652 E26.18429
G1 X79.671 Y148.494 E26.19472
G1 X79.354 Y148.287 E26.20731
G1 X79.102 Y148.103 E26.21769
G1 X78.782 Y147.843 E26.2314
G1 X78.538 Y147.621 E26.24238
G1 X78.256 Y147.335 E26.25573
G1 X78.064 Y147.122 E26.26527
G1 X77.816 Y146.817 E26.27835
G1 X77.625 Y146.553 E26.28919
G1 X77.411 Y146.222 E26.30229
G1 X77.256 Y145.952 E26.31265
G1 X77.072 Y145.59 E26.32616
G1 X76.944 Y145.302 E26.33664
G1 X76.801 Y144.928 E26.34996
G1 X76.704 Y144.628 E26.36044
G1 X76.603 Y144.248 E26.37352
G1 X76.537 Y143.934 E26.38419
G1 X76.476 Y143.538 E26.39752
G1 X76.445 Y143.238 E26.40755
G1 X76.424 Y142.838 E26.42087
G1 X76.42 Y142.681 E26.4261
G1 X76.42 Y92.319 E28.10114
G1 X76.425 Y92.153 E28.10667
G1 X76.448 Y91.738 E28.12049
G1 X76.479 Y91.443 E28.13036
G1 X76.54 Y91.051 E28.14355
G1 X76.609 Y90.726 E28.1546
G1 X76.713 Y90.343 E28.1678
G1 X76.809 Y90.049 E28.17809
G1 X76.956 Y89.668 E28.19167
G1 X77.085 Y89.38 E28.20217
G1 X77.268 Y89.023 E28.21551
G1 X77.426 Y88.751 E28.22597
G1 X77.633 Y88.434 E28.23856
G1 X77.815 Y88.184 E28.24885
G1 X78.073 Y87.866 E28.26247
G1 X78.297 Y87.62 E28.27353
G1 X78.585 Y87.336 E28.28699
G0 F6000 X78.865 Y87.621
G1 F1200 X79.051 Y87.455 E28.29528
G1 X79.356 Y87.207 E28.30835
G1 X79.584 Y87.041 E28.31773
G1 X79.915 Y86.827 E28.33084
G1 X80.149 Y86.692 E28.33983
G1 X80.511 Y86.508 E28.35334
G1 X80.758 Y86.398 E28.36233
G1 X81.123 Y86.258 E28.37533
G1 X81.382 Y86.174 E28.38439
G1 X81.771 Y86.07 E28.39778
G1 X82.046 Y86.012 E28.40713
G1 X82.441 Y85.951 E28.42042
G1 X82.7 Y85.925 E28.42908
G1 X83.096 Y85.904 E28.44227
G1 X83.234 Y85.9 E28.44686
G1 X152.923 Y85.9 E30.76473
G1 X153.377 Y85.94 E30.77988
G1 X153.817 Y86.058 E30.79504
G1 X154.229 Y86.252 E30.81018
G1 X154.761 Y86.662 E30.83252
G1 X154.878 Y86.779 E30.83802
G1 X155.171 Y87.128 E30.85318
G1 X155.398 Y87.523 E30.86833
G1 X155.553 Y87.951 E30.88347
G1 X155.64 Y88.617 E30.90581
G1 X155.64 Y89.125 E30.92271
G1 X155.917 Y89.149 E30.93196
G1 X156.357 Y89.267 E30.94711
G1 X156.769 Y89.461 E30.96225
G1 X157.142 Y89.724 E30.97743
G1 X157.426 Y89.996 E30.99051
G1 X157.718 Y90.347 E31.0057
G1 X157.943 Y90.743 E31.02085
G1 X158.096 Y91.172 E31.036
G1 X158.18 Y91.827 E31.05796
G1 X158.18 Y143.174 E32.76577
G1 X158.14 Y143.628 E32.78093
G1 X158.022 Y144.068 E32.79608
G1 X157.828 Y144.48 E32.81123
G1 X157.418 Y145.012 E32.83356
G1 X157.301 Y145.129 E32.83907
G1 X156.952 Y145.422 E32.85422
G1 X156.557 Y145.649 E32.86938
G1 X156.129 Y145.804 E32.88452
G1 X155.64 Y145.868 E32.90092
G1 X155.64 Y146.383 E32.91805
G1 X155.6 Y146.837 E32.93321
G1 X155.482 Y147.277 E32.94836
G1 X155.288 Y147.689 E32.96351
G1 X154.878 Y148.221 E32.98585
G1 X154.761 Y148.338 E32.99135
G1 X154.412 Y148.631 E33.0065
G1 X154.017 Y148.858 E33.02166
G1 X153.589 Y149.013 E33.0368
G1 X152.923 Y149.1 E33.05914
G1 X83.228 Y149.1 E35.3772
G1 X83.08 Y149.096 E35.38213
G1 X82.676 Y149.073 E35.39559
G1 X82.424 Y149.046 E35.40401
G1 X82.032 Y148.985 E35.41721
G1 X81.751 Y148.925 E35.42677
G1 X81.368 Y148.821 E35.43997
G1 X81.112 Y148.737 E35.44893
G1 X80.729 Y148.589 E35.46258
G1 X80.48 Y148.478 E35.47165
G1 X80.125 Y148.296 E35.48492
G1 X79.889 Y148.159 E35.494
G1 X79.572 Y147.952 E35.50659
G1 X79.354 Y147.793 E35.51556
G1 X79.034 Y147.533 E35.52928
G1 X78.823 Y147.34 E35.53879
G1 X78.541 Y147.054 E35.55215
G1 X78.375 Y146.869 E35.56041
G1 X78.127 Y146.564 E35.57349
G1 X77.961 Y146.336 E35.58287
G1 X77.747 Y146.005 E35.59598
G1 X77.612 Y145.771 E35.60496
G1 X77.428 Y145.409 E35.61847
G1 X77.317 Y145.16 E35.62754
G1 X77.174 Y144.786 E35.64085
G1 X77.09 Y144.525 E35.64997
G1 X76.989 Y144.145 E35.66305
G1 X76.932 Y143.873 E35.67229
G1 X76.871 Y143.477 E35.68562
G1 X76.845 Y143.217 E35.69431
G1 X76.824 Y142.817 E35.70763
G1 X76.82 Y142.681 E35.71216
G1 X76.82 Y92.319 E37.38721
G1 X76.824 Y92.175 E37.392
G1 X76.847 Y91.76 E37.40582
G1 X76.874 Y91.504 E37.41438
G1 X76.935 Y91.112 E37.42758
G1 X76.995 Y90.831 E37.43714
G1 X77.099 Y90.448 E37.45034
G1 X77.182 Y90.193 E37.45925
G1 X77.329 Y89.812 E37.47284
G1 X77.441 Y89.562 E37.48195
G1 X77.624 Y89.205 E37.49529
G1 X77.761 Y88.969 E37.50437
G1 X77.968 Y88.652 E37.51696
G1 X78.126 Y88.436 E37.52586
G1 X78.384 Y88.118 E37.53948
G1 X78.577 Y87.905 E37.54904
G1 X78.865 Y87.621 E37.56249
G0 F6000 X79.146 Y87.906
G1 F1200 X79.303 Y87.765 E37.56951
G1 X79.608 Y87.517 E37.58259
G1 X79.802 Y87.376 E37.59056
G1 X80.133 Y87.162 E37.60367
G1 X80.33 Y87.049 E37.61123
G1 X80.692 Y86.865 E37.62473
G1 X80.901 Y86.772 E37.63234
G1 X81.266 Y86.632 E37.64534
G1 X81.486 Y86.561 E37.65303
G1 X81.875 Y86.457 E37.66643
G1 X82.107 Y86.408 E37.67431
G1 X82.502 Y86.347 E37.68761
G1 X82.721 Y86.324 E37.69493
G1 X83.117 Y86.303 E37.70812
G1 X83.234 Y86.3 E37.71201
G1 X152.923 Y86.3 E40.02988
G1 X153.34 Y86.34 E40.04381
G1 X153.742 Y86.458 E40.05774
G1 X154.114 Y86.651 E40.07168
G1 X154.479 Y86.944 E40.08725
G1 X154.596 Y87.061 E40.09275
G1 X154.862 Y87.385 E40.1067
G1 X155.063 Y87.752 E40.12061
G1 X155.19 Y88.152 E40.13457
G1 X155.24 Y88.617 E40.15013
G1 X155.24 Y89.509 E40.1798
G1 X155.463 Y89.509 E40.18721
G1 X155.88 Y89.549 E40.20115
G1 X156.282 Y89.667 E40.21508
G1 X156.654 Y89.86 E40.22902
G1 X157.025 Y90.16 E40.24489
G1 X157.142 Y90.278 E40.25042
G1 X157.408 Y90.602 E40.26436
G1 X157.607 Y90.971 E40.2783
G1 X157.732 Y91.371 E40.29224
G1 X157.78 Y91.827 E40.30749
G1 X157.78 Y143.174 E42.0153
G1 X157.74 Y143.591 E42.02923
G1 X157.622 Y143.993 E42.04317
G1 X157.429 Y144.365 E42.05711
G1 X157.136 Y144.73 E42.07267
G1 X157.019 Y144.847 E42.07818
G1 X156.695 Y145.113 E42.09212
G1 X156.328 Y145.314 E42.10604
G1 X155.928 Y145.441 E42.12
G1 X155.463 Y145.491 E42.13555
G1 X155.24 Y145.491 E42.14297
G1 X155.24 Y146.383 E42.17264
G1 X155.2 Y146.8 E42.18657
G1 X155.082 Y147.202 E42.2005
G1 X154.889 Y147.574 E42.21444
G1 X154.596 Y147.939 E42.23001
G1 X154.479 Y148.056 E42.23551
G1 X154.155 Y148.322 E42.24946
G1 X153.788 Y148.523 E42.26337
G1 X153.388 Y148.65 E42.27733
G1 X152.923 Y148.7 E42.29289
G1 X83.228 Y148.7 E44.61095
G1 X83.103 Y148.696 E44.61511
G1 X82.699 Y148.673 E44.62857
G1 X82.486 Y148.651 E44.63569
G1 X82.094 Y148.59 E44.64889
G1 X81.855 Y148.539 E44.65702
G1 X81.472 Y148.435 E44.67022
G1 X81.256 Y148.364 E44.67778
G1 X80.873 Y148.216 E44.69143
