;FLAVOR:Marlin
;TIME:24675
;Filament used: 15.7475m
;Layer height: 0.2
;MINX:76.752
;MINY:84.7
;MINZ:0.2
;MAXX:159.38
;MAXY:150.3
;MAXZ:55.2
;Generated with Cura_SteamEngine 4.10.0
M140 S60
M105
M190 S60
M104 S230
M105
M109 S230
M82 ;absolute extrusion mode
; Ender 3 Custom Start G-code
G92 E0 ; Reset Extruder
G28 ; Home all axes
G1 Z2.0 F3000 ; Move Z Axis up little to prevent scratching of Heat Bed
G1 X0.1 Y20 Z0.3 F5000.0 ; Move to start position
G1 X0.1 Y200.0 Z0.3 F1500.0 E15 ; Draw the first line
G1 X0.4 Y200.0 Z0.3 F5000.0 ; Move to side a little
G1 X0.4 Y20 Z0.3 F1500.0 E30 ; Draw the second line
G92 E0 ; Reset Extruder
G1 Z2.0 F3000 ; Move Z Axis up little to prevent scratching of Heat Bed
G1 X5 Y20 Z0.3 F5000.0 ; Move over to prevent blob squish
G92 E0
G92 E0
G1 F3000 E-5
;LAYER_COUNT:276
;LAYER:0
M107
G0 F6000 X78.069 Y86.717 Z0.2
;TYPE:SKIRT
G1 F3000 E0
G1 F1500 X78.445 Y86.384 E0.01671
G1 X79.01 Y85.97 E0.04
G1 X79.457 Y85.702 E0.05734
G1 X79.792 Y85.523 E0.06997
G1 X79.947 Y85.45 E0.07567
G1 X80.461 Y85.252 E0.09399
G1 X80.768 Y85.183 E0.10445
G1 X80.911 Y85.106 E0.10986
G1 X81.429 Y84.918 E0.12818
G1 X81.94 Y84.81 E0.14556
G1 X82.342 Y84.754 E0.15906
G1 X82.677 Y84.723 E0.17025
G1 X83.038 Y84.705 E0.18227
G1 X83.227 Y84.7 E0.18856
G1 X152.923 Y84.7 E2.50665
G1 X153.473 Y84.74 E2.525
G1 X154.011 Y84.859 E2.54332
G1 X154.526 Y85.055 E2.56165
G1 X155.007 Y85.323 E2.57996
G1 X155.61 Y85.813 E2.60581
G1 X155.727 Y85.93 E2.61131
G1 X156.087 Y86.347 E2.62963
G1 X156.384 Y86.811 E2.64796
G1 X156.61 Y87.314 E2.6663
G1 X156.761 Y87.844 E2.68463
G1 X156.793 Y88.16 E2.69519
G1 X157.066 Y88.264 E2.70491
G1 X157.547 Y88.532 E2.72322
G1 X158.161 Y89.033 E2.74958
G1 X158.278 Y89.151 E2.7551
G1 X158.637 Y89.57 E2.77346
G1 X158.931 Y90.036 E2.79178
G1 X159.155 Y90.539 E2.8101
G1 X159.304 Y91.07 E2.82844
G1 X159.38 Y91.827 E2.85374
G1 X159.38 Y143.174 E4.56155
G1 X159.34 Y143.724 E4.57989
G1 X159.221 Y144.262 E4.59822
G1 X159.025 Y144.777 E4.61655
G1 X158.757 Y145.258 E4.63486
G1 X158.267 Y145.861 E4.6607
G1 X158.15 Y145.978 E4.66621
G1 X157.733 Y146.338 E4.68453
G1 X157.269 Y146.635 E4.70285
G1 X156.807 Y146.843 E4.7197
G1 X156.8 Y146.933 E4.72271
G1 X156.681 Y147.471 E4.74103
G1 X156.485 Y147.986 E4.75936
G1 X156.217 Y148.467 E4.77768
G1 X155.727 Y149.07 E4.80352
G1 X155.61 Y149.187 E4.80902
G1 X155.193 Y149.547 E4.82734
G1 X154.729 Y149.844 E4.84567
G1 X154.226 Y150.07 E4.86401
G1 X153.696 Y150.221 E4.88234
G1 X152.923 Y150.3 E4.90818
G1 X83.223 Y150.3 E7.22641
G1 X83.021 Y150.295 E7.23313
G1 X82.646 Y150.275 E7.24562
G1 X82.298 Y150.24 E7.25726
G1 X81.915 Y150.184 E7.27013
G1 X81.377 Y150.065 E7.28846
G1 X80.862 Y149.869 E7.30679
G1 X80.773 Y149.82 E7.31016
G1 X80.39 Y149.725 E7.32329
G1 X79.926 Y149.539 E7.33992
G1 X79.761 Y149.46 E7.346
G1 X79.459 Y149.299 E7.35738
G1 X79.037 Y149.048 E7.37371
G1 X78.471 Y148.636 E7.397
G1 X78.082 Y148.294 E7.41423
G1 X77.696 Y147.901 E7.43255
G1 X77.37 Y147.456 E7.45089
G1 X77.143 Y147.038 E7.46672
G1 X77.105 Y146.956 E7.46972
G1 X76.91 Y146.44 E7.48807
G1 X76.792 Y145.902 E7.50639
G1 X76.753 Y145.363 E7.52436
G1 X76.752 Y144.554 E7.55127
G1 X76.76 Y138.201 E7.76257
G1 X76.76 Y96.782 E9.14017
G1 X76.752 Y89.645 E9.37755
G1 X76.791 Y89.096 E9.39586
G1 X76.91 Y88.558 E9.41418
G1 X77.094 Y88.065 E9.43168
G1 X77.13 Y87.986 E9.43457
G1 X77.394 Y87.503 E9.45288
G1 X77.726 Y87.063 E9.47121
G1 X78.069 Y86.717 E9.48742
G0 F6000 X78.334 Y87.017
G1 F1500 X78.71 Y86.684 E9.50412
G1 X79.216 Y86.313 E9.52499
G1 X79.663 Y86.045 E9.54233
G1 X79.962 Y85.885 E9.5536
G1 X80.117 Y85.812 E9.5593
G1 X80.604 Y85.627 E9.57663
G1 X80.908 Y85.562 E9.58697
G1 X81.152 Y85.437 E9.59609
G1 X81.647 Y85.274 E9.61342
G1 X81.995 Y85.207 E9.62521
G1 X82.397 Y85.151 E9.63871
G1 X82.697 Y85.122 E9.64873
G1 X83.058 Y85.104 E9.66075
G1 X83.227 Y85.1 E9.66638
G1 X152.923 Y85.1 E11.98448
G1 X153.443 Y85.14 E12.00182
G1 X153.95 Y85.259 E12.01914
G1 X154.433 Y85.454 E12.03647
G1 X154.881 Y85.72 E12.0538
G1 X155.327 Y86.096 E12.0732
G1 X155.444 Y86.213 E12.0787
G1 X155.783 Y86.609 E12.09604
G1 X156.058 Y87.051 E12.11335
G1 X156.262 Y87.531 E12.1307
G1 X156.39 Y88.036 E12.14803
G1 X156.426 Y88.453 E12.16195
G1 X156.49 Y88.468 E12.16414
G1 X156.973 Y88.663 E12.18146
G1 X157.421 Y88.929 E12.19879
G1 X157.877 Y89.315 E12.21866
G1 X157.994 Y89.433 E12.22419
G1 X158.332 Y89.83 E12.24153
G1 X158.605 Y90.274 E12.25886
G1 X158.806 Y90.755 E12.2762
G1 X158.932 Y91.26 E12.29351
G1 X158.98 Y91.827 E12.31244
G1 X158.98 Y143.174 E14.02025
G1 X158.94 Y143.694 E14.0376
G1 X158.821 Y144.201 E14.05492
G1 X158.626 Y144.684 E14.07224
G1 X158.36 Y145.132 E14.08957
G1 X157.984 Y145.578 E14.10897
G1 X157.867 Y145.695 E14.11448
G1 X157.471 Y146.034 E14.13181
G1 X157.029 Y146.309 E14.14913
G1 X156.549 Y146.513 E14.16647
G1 X156.428 Y146.544 E14.17063
G1 X156.4 Y146.903 E14.18261
G1 X156.281 Y147.41 E14.19993
G1 X156.086 Y147.893 E14.21725
G1 X155.82 Y148.341 E14.23458
G1 X155.444 Y148.787 E14.25398
G1 X155.327 Y148.904 E14.25949
G1 X154.931 Y149.243 E14.27682
G1 X154.489 Y149.518 E14.29414
G1 X154.009 Y149.722 E14.31148
G1 X153.504 Y149.85 E14.32881
G1 X152.923 Y149.9 E14.34821
G1 X83.223 Y149.9 E16.66644
G1 X83.042 Y149.895 E16.67246
G1 X82.667 Y149.875 E16.68495
G1 X82.356 Y149.844 E16.69535
G1 X81.973 Y149.788 E16.70822
G1 X81.465 Y149.674 E16.72554
G1 X80.98 Y149.482 E16.74289
G1 X80.662 Y149.389 E16.75391
G1 X80.099 Y149.179 E16.77389
G1 X79.934 Y149.1 E16.77998
G1 X79.664 Y148.955 E16.79017
G1 X79.242 Y148.704 E16.8065
G1 X78.735 Y148.335 E16.82736
G1 X78.346 Y147.993 E16.84458
G1 X77.982 Y147.62 E16.86192
G1 X77.68 Y147.196 E16.87923
G1 X77.506 Y146.87 E16.89152
G1 X77.468 Y146.788 E16.89453
G1 X77.286 Y146.299 E16.91188
G1 X77.18 Y145.789 E16.92921
G1 X77.153 Y145.362 E16.94344
G1 X77.152 Y144.555 E16.97028
G1 X77.16 Y138.202 E17.18158
G1 X77.16 Y96.782 E18.55922
G1 X77.152 Y89.645 E18.79659
G1 X77.191 Y89.125 E18.81394
G1 X77.31 Y88.618 E18.83126
G1 X77.458 Y88.231 E18.84504
G1 X77.494 Y88.152 E18.84793
G1 X77.746 Y87.696 E18.86526
G1 X78.065 Y87.283 E18.88261
G1 X78.334 Y87.017 E18.8952
G0 F6000 X78.599 Y87.316
G1 F1500 X78.975 Y86.983 E18.9119
G1 X79.421 Y86.656 E18.93029
G1 X79.868 Y86.388 E18.94763
G1 X80.133 Y86.247 E18.95761
G1 X80.288 Y86.174 E18.96331
G1 X80.746 Y86.002 E18.97958
G1 X81.029 Y85.946 E18.98918
G1 X81.389 Y85.773 E19.00246
G1 X82.05 Y85.603 E19.02516
G1 X82.452 Y85.547 E19.03866
G1 X82.717 Y85.522 E19.04752
G1 X83.078 Y85.504 E19.05954
G1 X83.227 Y85.5 E19.0645
G1 X152.923 Y85.5 E21.38259
G1 X153.411 Y85.54 E21.39888
G1 X153.886 Y85.659 E21.41517
G1 X154.335 Y85.853 E21.43143
G1 X154.747 Y86.118 E21.44773
G1 X155.044 Y86.379 E21.46088
G1 X155.161 Y86.496 E21.46638
G1 X155.478 Y86.869 E21.48266
G1 X155.73 Y87.289 E21.49895
G1 X155.91 Y87.744 E21.51523
G1 X156.014 Y88.222 E21.5315
G1 X156.04 Y88.617 E21.54466
G1 X156.04 Y88.771 E21.54979
G1 X156.426 Y88.868 E21.56302
G1 X156.875 Y89.062 E21.57929
G1 X157.287 Y89.327 E21.59559
G1 X157.593 Y89.597 E21.60916
G1 X157.71 Y89.715 E21.61469
G1 X158.025 Y90.089 E21.63095
G1 X158.276 Y90.51 E21.64725
G1 X158.454 Y90.966 E21.66353
G1 X158.556 Y91.445 E21.67982
G1 X158.58 Y91.827 E21.69255
G1 X158.58 Y143.174 E23.40036
G1 X158.54 Y143.662 E23.41664
G1 X158.421 Y144.137 E23.43293
G1 X158.227 Y144.586 E23.4492
G1 X157.962 Y144.998 E23.46549
G1 X157.701 Y145.295 E23.47864
G1 X157.584 Y145.412 E23.48415
G1 X157.211 Y145.729 E23.50043
G1 X156.791 Y145.981 E23.51672
G1 X156.336 Y146.161 E23.53299
G1 X156.04 Y146.225 E23.54307
G1 X156.04 Y146.383 E23.54832
G1 X156 Y146.871 E23.56461
G1 X155.881 Y147.346 E23.58089
G1 X155.687 Y147.795 E23.59716
G1 X155.422 Y148.207 E23.61345
G1 X155.161 Y148.504 E23.6266
G1 X155.044 Y148.621 E23.63211
G1 X154.671 Y148.938 E23.64839
G1 X154.251 Y149.19 E23.66468
G1 X153.796 Y149.37 E23.68095
G1 X153.318 Y149.474 E23.69722
G1 X152.923 Y149.5 E23.71039
G1 X83.223 Y149.5 E26.02862
G1 X83.063 Y149.496 E26.03395
G1 X82.688 Y149.476 E26.04644
G1 X82.414 Y149.448 E26.0556
G1 X82.031 Y149.392 E26.06847
G1 X81.554 Y149.282 E26.08475
G1 X81.101 Y149.096 E26.10104
G1 X80.897 Y149.036 E26.10811
G1 X80.271 Y148.818 E26.13016
G1 X80.106 Y148.739 E26.13624
G1 X79.868 Y148.611 E26.14523
G1 X79.446 Y148.36 E26.16156
G1 X78.999 Y148.035 E26.17994
G1 X78.61 Y147.693 E26.19717
G1 X78.27 Y147.341 E26.21345
G1 X77.992 Y146.938 E26.22973
G1 X77.869 Y146.701 E26.23861
G1 X77.831 Y146.619 E26.24162
G1 X77.662 Y146.16 E26.25789
G1 X77.57 Y145.679 E26.27418
G1 X77.553 Y145.362 E26.28473
G1 X77.552 Y144.555 E26.31158
G1 X77.56 Y138.202 E26.52288
G1 X77.56 Y96.782 E27.90051
G1 X77.552 Y89.644 E28.13792
G1 X77.591 Y89.156 E28.15421
G1 X77.71 Y88.681 E28.17049
G1 X77.822 Y88.397 E28.18065
G1 X77.858 Y88.318 E28.18353
G1 X78.097 Y87.891 E28.19981
G1 X78.402 Y87.508 E28.21609
G1 X78.599 Y87.316 E28.22524
G0 F6000 X78.864 Y87.616
G1 F1500 X79.24 Y87.283 E28.24195
G1 X79.627 Y86.999 E28.25791
G1 X80.074 Y86.731 E28.27525
G1 X80.303 Y86.609 E28.28388
G1 X80.458 Y86.536 E28.28958
G1 X80.886 Y86.379 E28.30474
G1 X81.16 Y86.329 E28.314
G1 X81.205 Y86.299 E28.3158
G1 X81.622 Y86.114 E28.33098
G1 X82.105 Y85.999 E28.34749
G1 X82.507 Y85.943 E28.36099
G1 X82.737 Y85.921 E28.36867
G1 X83.098 Y85.903 E28.3807
G1 X83.227 Y85.9 E28.38499
G1 X152.923 Y85.9 E30.70309
G1 X153.377 Y85.94 E30.71824
G1 X153.817 Y86.058 E30.7334
G1 X154.229 Y86.252 E30.74854
G1 X154.761 Y86.662 E30.77088
G1 X154.878 Y86.779 E30.77639
G1 X155.171 Y87.128 E30.79154
G1 X155.398 Y87.523 E30.80669
G1 X155.553 Y87.951 E30.82183
G1 X155.64 Y88.617 E30.84417
G1 X155.64 Y89.125 E30.86107
G1 X155.917 Y89.149 E30.87032
G1 X156.357 Y89.267 E30.88547
G1 X156.769 Y89.461 E30.90062
G1 X157.142 Y89.724 E30.9158
G1 X157.426 Y89.996 E30.92887
G1 X157.718 Y90.347 E30.94406
G1 X157.943 Y90.743 E30.95921
G1 X158.096 Y91.172 E30.97436
G1 X158.18 Y91.827 E30.99632
G1 X158.18 Y143.174 E32.70413
G1 X158.14 Y143.628 E32.71929
G1 X158.022 Y144.068 E32.73444
G1 X157.828 Y144.48 E32.74959
G1 X157.418 Y145.012 E32.77193
G1 X157.301 Y145.129 E32.77743
G1 X156.952 Y145.422 E32.79259
G1 X156.557 Y145.649 E32.80774
G1 X156.129 Y145.804 E32.82288
G1 X155.64 Y145.868 E32.83928
G1 X155.64 Y146.383 E32.85641
G1 X155.6 Y146.837 E32.87157
G1 X155.482 Y147.277 E32.88672
G1 X155.288 Y147.689 E32.90187
G1 X154.878 Y148.221 E32.92421
G1 X154.761 Y148.338 E32.92971
G1 X154.412 Y148.631 E32.94487
G1 X154.017 Y148.858 E32.96002
G1 X153.589 Y149.013 E32.97516
G1 X152.923 Y149.1 E32.9975
G1 X83.223 Y149.1 E35.31573
G1 X83.085 Y149.096 E35.32032
G1 X82.71 Y149.076 E35.33281
G1 X82.472 Y149.053 E35.34076
G1 X82.089 Y148.997 E35.35364
G1 X81.646 Y148.891 E35.36879
G1 X81.227 Y148.711 E35.38396
G1 X81.094 Y148.669 E35.38859
G1 X80.655 Y148.547 E35.40375
G1 X80.279 Y148.378 E35.41746
G1 X80.073 Y148.268 E35.42523
G1 X79.651 Y148.017 E35.44156
G1 X79.263 Y147.735 E35.45751
G1 X78.874 Y147.393 E35.47474
G1 X78.56 Y147.063 E35.48989
G1 X78.232 Y146.533 E35.51062
G1 X78.194 Y146.451 E35.51363
G1 X78.039 Y146.023 E35.52877
G1 X77.953 Y145.361 E35.55097
G1 X77.952 Y144.556 E35.57774
G1 X77.96 Y138.203 E35.78905
G1 X77.96 Y96.782 E37.16671
G1 X77.952 Y89.644 E37.40412
G1 X77.991 Y89.19 E37.41928
G1 X78.186 Y88.563 E37.44112
G1 X78.222 Y88.484 E37.44401
G1 X78.447 Y88.087 E37.45918
G1 X78.864 Y87.616 E37.48011
G0 F6000 X79.129 Y87.915
G1 F1500 X79.505 Y87.582 E37.49681
G1 X79.833 Y87.342 E37.51033
G1 X80.28 Y87.074 E37.52767
G1 X80.629 Y86.898 E37.54067
G1 X81.023 Y86.756 E37.5546
G1 X81.311 Y86.711 E37.56429
G1 X81.458 Y86.617 E37.57009
G1 X81.847 Y86.462 E37.58402
G1 X82.16 Y86.395 E37.59467
G1 X82.562 Y86.339 E37.60817
G1 X82.756 Y86.321 E37.61465
G1 X83.117 Y86.303 E37.62667
G1 X83.227 Y86.3 E37.63033
G1 X152.923 Y86.3 E39.94843
G1 X153.34 Y86.34 E39.96236
G1 X153.742 Y86.458 E39.9763
G1 X154.114 Y86.651 E39.99023
G1 X154.479 Y86.944 E40.0058
G1 X154.596 Y87.061 E40.01131
G1 X154.862 Y87.385 E40.02525
G1 X155.063 Y87.752 E40.03917
G1 X155.19 Y88.152 E40.05312
G1 X155.24 Y88.617 E40.06868
G1 X155.24 Y89.509 E40.09835
G1 X155.463 Y89.509 E40.10576
G1 X155.88 Y89.549 E40.1197
G1 X156.282 Y89.667 E40.13363
G1 X156.654 Y89.86 E40.14757
G1 X157.025 Y90.16 E40.16344
G1 X157.142 Y90.278 E40.16897
G1 X157.408 Y90.602 E40.18291
G1 X157.607 Y90.971 E40.19685
G1 X157.732 Y91.371 E40.21079
G1 X157.78 Y91.827 E40.22604
G1 X157.78 Y143.174 E41.93385
G1 X157.74 Y143.591 E41.94778
G1 X157.622 Y143.993 E41.96172
G1 X157.429 Y144.365 E41.97566
G1 X157.136 Y144.73 E41.99122
G1 X157.019 Y144.847 E41.99673
G1 X156.695 Y145.113 E42.01067
G1 X156.328 Y145.314 E42.02459
G1 X155.928 Y145.441 E42.03855
G1 X155.463 Y145.491 E42.0541
G1 X155.24 Y145.491 E42.06152
G1 X155.24 Y146.383 E42.09119
G1 X155.2 Y146.8 E42.10512
G1 X155.082 Y147.202 E42.11905
G1 X154.889 Y147.574 E42.13299
G1 X154.596 Y147.939 E42.14856
G1 X154.479 Y148.056 E42.15406
G1 X154.155 Y148.322 E42.16801
G1 X153.788 Y148.523 E42.18192
G1 X153.388 Y148.65 E42.19588
G1 X152.923 Y148.7 E42.21144
G1 X83.223 Y148.7 E44.52967
G1 X83.106 Y148.697 E44.53356
G1 X82.731 Y148.677 E44.54605
G1 X82.53 Y148.657 E44.55277
G1 X82.147 Y148.601 E44.56564
G1 X81.74 Y148.501 E44.57958
G1 X81.359 Y148.326 E44.59353
G1 X81.249 Y148.289 E44.59739
G1 X80.842 Y148.189 E44.61133
G1 X80.452 Y148.017 E44.62551
G1 X80.277 Y147.924 E44.6321
G1 X79.855 Y147.673 E44.64843
G1 X79.527 Y147.434 E44.66193
G1 X79.138 Y147.092 E44.67915
G1 X78.851 Y146.787 E44.69308
G1 X78.595 Y146.365 E44.7095
G1 X78.557 Y146.283 E44.71251
G1 X78.418 Y145.888 E44.72643
G1 X78.353 Y145.361 E44.74409
G1 X78.352 Y144.556 E44.77087
G1 X78.36 Y138.203 E44.98217
G1 X78.36 Y96.782 E46.35984
G1 X78.352 Y89.643 E46.59728
G1 X78.391 Y89.226 E46.61121
G1 X78.55 Y88.729 E46.62857
G1 X78.586 Y88.65 E46.63146
G1 X78.795 Y88.287 E46.64539
G1 X79.129 Y87.915 E46.66202
G0 F6000 X79.395 Y88.214
G1 F1500 X79.771 Y87.881 E46.67872
G1 X80.038 Y87.685 E46.68974
G1 X80.485 Y87.417 E46.70707
G1 X80.799 Y87.26 E46.71875
G1 X81.157 Y87.135 E46.73136
G1 X81.442 Y87.099 E46.74091
G1 X81.706 Y86.941 E46.75115
G1 X82.216 Y86.791 E46.76883
G1 X82.618 Y86.735 E46.78233
G1 X82.776 Y86.72 E46.78761
G1 X83.137 Y86.702 E46.79963
G1 X83.227 Y86.7 E46.80262
G1 X152.923 Y86.7 E49.12072
G1 X153.3 Y86.74 E49.13333
G1 X153.66 Y86.858 E49.14593
G1 X153.987 Y87.048 E49.15851
G1 X154.196 Y87.227 E49.16766
G1 X154.313 Y87.344 E49.17317
G1 X154.551 Y87.639 E49.18577
G1 X154.722 Y87.977 E49.19837
G1 X154.819 Y88.343 E49.21096
G1 X154.84 Y88.617 E49.2201
G1 X154.84 Y89.909 E49.26308
G1 X155.463 Y89.909 E49.2838
G1 X155.84 Y89.949 E49.29641
G1 X156.2 Y90.067 E49.30901
G1 X156.527 Y90.257 E49.32159
G1 X156.741 Y90.442 E49.331
G1 X156.858 Y90.56 E49.33652
G1 X157.095 Y90.855 E49.34911
G1 X157.265 Y91.194 E49.36172
G1 X157.36 Y91.561 E49.37433
G1 X157.38 Y91.827 E49.3832
G1 X157.38 Y143.174 E51.09101
G1 X157.34 Y143.551 E51.10362
G1 X157.222 Y143.911 E51.11622
G1 X157.032 Y144.238 E51.1288
G1 X156.853 Y144.447 E51.13795
G1 X156.736 Y144.564 E51.14345
G1 X156.441 Y144.802 E51.15606
G1 X156.103 Y144.973 E51.16866
G1 X155.737 Y145.07 E51.18125
G1 X155.463 Y145.091 E51.19039
G1 X154.84 Y145.091 E51.21112
G1 X154.84 Y146.383 E51.25409
G1 X154.8 Y146.76 E51.2667
G1 X154.682 Y147.12 E51.2793
G1 X154.492 Y147.447 E51.29188
G1 X154.313 Y147.656 E51.30103
G1 X154.196 Y147.773 E51.30653
G1 X153.901 Y148.011 E51.31914
G1 X153.563 Y148.182 E51.33174
G1 X153.197 Y148.279 E51.34433
G1 X152.923 Y148.3 E51.35347
G1 X83.223 Y148.3 E53.6717
G1 X83.127 Y148.297 E53.6749
G1 X82.752 Y148.277 E53.68739
