;FLAVOR:Marlin
;TIME:27455
;Filament used: 17.4102m
;Layer height: 0.2
;MINX:75.889
;MINY:83.835
;MINZ:0.24
;MAXX:160.244
;MAXY:150.782
;MAXZ:56.23
;Generated with Cura_SteamEngine 4.10.0
M140 S60
M105
M190 S60
M104 S230
M105
M109 S230
M82 ;absolute extrusion mode
; Ender 3 Custom Start G-code
G92 E0 ; Reset Extruder
G28 ; Home all axes
G1 Z2.0 F3000 ; Move Z Axis up little to prevent scratching of Heat Bed
G1 X0.1 Y20 Z0.3 F5000.0 ; Move to start position
G1 X0.1 Y200.0 Z0.3 F1500.0 E15 ; Draw the first line
G1 X0.4 Y200.0 Z0.3 F5000.0 ; Move to side a little
G1 X0.4 Y20 Z0.3 F1500.0 E30 ; Draw the second line
G92 E0 ; Reset Extruder
G1 Z2.0 F3000 ; Move Z Axis up little to prevent scratching of Heat Bed
G1 X5 Y20 Z0.3 F5000.0 ; Move over to prevent blob squish
G92 E0
G92 E0
G1 F2400 E-6
;LAYER_COUNT:276
;LAYER:-5
M106 S63.8
G0 F9000 X78.272 Y86.804 Z0.24
;TYPE:SUPPORT-INTERFACE
G1 F2400 E0
G1 F1350 X78.486 Y86.615 E0.02279
G1 X78.643 Y86.488 E0.03891
G1 X79.051 Y86.189 E0.07929
G1 X79.203 Y86.088 E0.09386
G1 X79.587 Y85.86 E0.1295
G1 X79.84 Y85.725 E0.15239
G1 X79.936 Y85.677 E0.16096
G1 X80.186 Y85.558 E0.18306
G1 X80.495 Y85.427 E0.20985
G1 X80.668 Y85.367 E0.22447
G1 X80.942 Y85.291 E0.24717
G1 X81.081 Y85.245 E0.25886
G1 X81.612 Y85.088 E0.30306
G1 X81.882 Y85.029 E0.32512
G1 X82.075 Y84.994 E0.34078
G1 X82.365 Y84.954 E0.36414
G1 X82.655 Y84.925 E0.38741
G1 X83.077 Y84.904 E0.42114
G1 X83.252 Y84.9 E0.43511
G1 X152.807 Y84.9 E5.98729
G1 X153.017 Y84.908 E6.00406
G1 X153.272 Y84.926 E6.02447
G1 X153.582 Y84.97 E6.04946
G1 X153.767 Y85.01 E6.06457
G1 X154.083 Y85.101 E6.09082
G1 X154.252 Y85.164 E6.10522
G1 X154.543 Y85.295 E6.13069
G1 X154.714 Y85.388 E6.14623
G1 X154.99 Y85.562 E6.17228
G1 X155.145 Y85.678 E6.18773
G1 X155.376 Y85.87 E6.21171
G1 X155.631 Y86.127 E6.24061
G1 X155.813 Y86.336 E6.26273
G1 X156.009 Y86.596 E6.28872
G1 X156.106 Y86.748 E6.30311
G1 X156.354 Y87.199 E6.3442
G1 X156.572 Y87.605 E6.38098
G1 X156.969 Y88.16 E6.43545
G1 X157.429 Y88.657 E6.48951
G1 X157.702 Y88.9 E6.51869
G1 X157.907 Y89.069 E6.53989
G1 X158.185 Y89.351 E6.5715
G1 X158.359 Y89.554 E6.59285
G1 X158.561 Y89.824 E6.61976
G1 X158.654 Y89.968 E6.63345
G1 X158.807 Y90.252 E6.6592
G1 X158.887 Y90.425 E6.67441
G1 X158.998 Y90.725 E6.69994
G1 X159.05 Y90.899 E6.71444
G1 X159.118 Y91.213 E6.74009
G1 X159.174 Y91.678 E6.77747
G1 X159.18 Y91.842 E6.79057
G1 X159.18 Y143.058 E10.87886
G1 X159.172 Y143.268 E10.89563
G1 X159.154 Y143.523 E10.91604
G1 X159.11 Y143.833 E10.94103
G1 X159.07 Y144.018 E10.95614
G1 X158.979 Y144.334 E10.98239
G1 X158.916 Y144.503 E10.99679
G1 X158.785 Y144.794 E11.02226
G1 X158.692 Y144.965 E11.0378
G1 X158.518 Y145.241 E11.06384
G1 X158.402 Y145.396 E11.0793
G1 X158.21 Y145.627 E11.10327
G1 X157.961 Y145.876 E11.13138
G1 X157.598 Y146.191 E11.16975
G1 X157.121 Y146.662 E11.22326
G1 X156.698 Y147.204 E11.27814
G1 X156.552 Y147.461 E11.30173
G1 X156.542 Y147.454 E11.30271
G1 X156.157 Y148.166 E11.36732
G1 X155.978 Y148.45 E11.39412
G1 X155.862 Y148.606 E11.40964
G1 X155.687 Y148.818 E11.43158
G1 X155.413 Y149.091 E11.46245
G1 X155.208 Y149.27 E11.48418
G1 X154.934 Y149.476 E11.51154
G1 X154.808 Y149.557 E11.5235
G1 X154.503 Y149.725 E11.55129
G1 X154.339 Y149.8 E11.56569
G1 X154.043 Y149.913 E11.59098
G1 X153.868 Y149.965 E11.60555
G1 X153.541 Y150.037 E11.63228
G1 X153.323 Y150.07 E11.64988
G1 X153.069 Y150.094 E11.67025
G1 X152.857 Y150.1 E11.68718
G1 X83.231 Y150.1 E17.24503
G1 X82.837 Y150.085 E17.2765
G1 X82.579 Y150.059 E17.2972
G1 X82.228 Y150.028 E17.32533
G1 X81.89 Y149.974 E17.35265
G1 X81.612 Y149.912 E17.37538
G1 X80.651 Y149.627 E17.4554
G1 X80.443 Y149.549 E17.47313
G1 X80.101 Y149.4 E17.50291
G1 X79.803 Y149.255 E17.52936
G1 X79.498 Y149.089 E17.55708
G1 X79.241 Y148.936 E17.58096
G1 X79.07 Y148.824 E17.59727
G1 X78.664 Y148.527 E17.63743
G1 X78.504 Y148.399 E17.65378
G1 X78.286 Y148.208 E17.67692
G1 X78.171 Y148.099 E17.68957
G1 X77.967 Y147.891 E17.71282
G1 X77.759 Y147.649 E17.7383
G1 X77.644 Y147.495 E17.75364
G1 X77.479 Y147.236 E17.77815
G1 X77.35 Y146.998 E17.79976
G1 X77.263 Y146.807 E17.81652
G1 X77.164 Y146.547 E17.83872
G1 X77.071 Y146.237 E17.86456
G1 X77.033 Y146.07 E17.87823
G1 X76.983 Y145.728 E17.90582
G1 X76.959 Y145.428 E17.92984
G1 X76.953 Y145.254 E17.94374
G1 X76.952 Y144.555 E17.99954
G1 X76.96 Y138.202 E18.50666
G1 X76.96 Y96.777 E21.81339
G1 X76.952 Y89.744 E22.37479
G1 X76.958 Y89.57 E22.38869
G1 X76.976 Y89.307 E22.40973
G1 X77.024 Y88.971 E22.43682
G1 X77.059 Y88.809 E22.45005
G1 X77.157 Y88.473 E22.47799
G1 X77.25 Y88.22 E22.49951
G1 X77.339 Y88.021 E22.51691
G1 X77.48 Y87.762 E22.54045
G1 X77.65 Y87.497 E22.56558
G1 X77.774 Y87.33 E22.58219
G1 X77.964 Y87.109 E22.60545
G1 X78.156 Y86.914 E22.6273
G1 X78.272 Y86.804 E22.64006
G0 F9000 X78.4 Y86.69
G1 F1350 X78.4 Y148.307 E27.55859
G0 F9000 X80 Y149.35
G1 F1350 X80 Y85.646 E32.64372
G0 F9000 X81.6 Y85.091
G1 F1350 X81.6 Y149.908 E37.81769
G0 F9000 X83.2 Y150.098
G1 F1350 X83.2 Y84.901 E43.022
G0 F9000 X84.8 Y84.9
G1 F1350 X84.8 Y150.1 E48.22655
G0 F9000 X86.4 Y150.1
G1 F1350 X86.4 Y84.9 E53.43109
G0 F9000 X88 Y84.9
G1 F1350 X88 Y150.1 E58.63564
G0 F9000 X89.6 Y150.1
G1 F1350 X89.6 Y84.9 E63.84018
G0 F9000 X91.2 Y84.9
G1 F1350 X91.2 Y150.1 E69.04473
G0 F9000 X92.8 Y150.1
G1 F1350 X92.8 Y84.9 E74.24928
G0 F9000 X94.4 Y84.9
G1 F1350 X94.4 Y150.1 E79.45382
G0 F9000 X96 Y150.1
G1 F1350 X96 Y84.9 E84.65837
G0 F9000 X97.6 Y84.9
G1 F1350 X97.6 Y150.1 E89.86291
G0 F9000 X99.2 Y150.1
G1 F1350 X99.2 Y84.9 E95.06746
G0 F9000 X100.8 Y84.9
G1 F1350 X100.8 Y150.1 E100.27201
G0 F9000 X102.4 Y150.1
G1 F1350 X102.4 Y84.9 E105.47655
G0 F9000 X104 Y84.9
G1 F1350 X104 Y150.1 E110.6811
G0 F9000 X105.6 Y150.1
G1 F1350 X105.6 Y84.9 E115.88564
G0 F9000 X107.2 Y84.9
G1 F1350 X107.2 Y150.1 E121.09019
G0 F9000 X108.8 Y150.1
G1 F1350 X108.8 Y84.9 E126.29474
G0 F9000 X110.4 Y84.9
G1 F1350 X110.4 Y150.1 E131.49928
G0 F9000 X112 Y150.1
G1 F1350 X112 Y84.9 E136.70383
G0 F9000 X113.6 Y84.9
G1 F1350 X113.6 Y150.1 E141.90837
G0 F9000 X115.2 Y150.1
G1 F1350 X115.2 Y84.9 E147.11292
G0 F9000 X116.8 Y84.9
G1 F1350 X116.8 Y150.1 E152.31746
G0 F9000 X118.4 Y150.1
G1 F1350 X118.4 Y84.9 E157.52201
G0 F9000 X120 Y84.9
G1 F1350 X120 Y150.1 E162.72656
G0 F9000 X121.6 Y150.1
G1 F1350 X121.6 Y84.9 E167.9311
G0 F9000 X123.2 Y84.9
G1 F1350 X123.2 Y150.1 E173.13565
G0 F9000 X124.8 Y150.1
G1 F1350 X124.8 Y84.9 E178.34019
G0 F9000 X126.4 Y84.9
G1 F1350 X126.4 Y150.1 E183.54474
G0 F9000 X128 Y150.1
G1 F1350 X128 Y84.9 E188.74929
G0 F9000 X129.6 Y84.9
G1 F1350 X129.6 Y150.1 E193.95383
G0 F9000 X131.2 Y150.1
G1 F1350 X131.2 Y84.9 E199.15838
G0 F9000 X132.8 Y84.9
G1 F1350 X132.8 Y150.1 E204.36292
G0 F9000 X134.4 Y150.1
G1 F1350 X134.4 Y84.9 E209.56747
G0 F9000 X136 Y84.9
G1 F1350 X136 Y150.1 E214.77202
G0 F9000 X137.6 Y150.1
G1 F1350 X137.6 Y84.9 E219.97656
G0 F9000 X139.2 Y84.9
G1 F1350 X139.2 Y150.1 E225.18111
G0 F9000 X140.8 Y150.1
G1 F1350 X140.8 Y84.9 E230.38565
G0 F9000 X142.4 Y84.9
G1 F1350 X142.4 Y150.1 E235.5902
G0 F9000 X144 Y150.1
G1 F1350 X144 Y84.9 E240.79475
G0 F9000 X145.6 Y84.9
G1 F1350 X145.6 Y150.1 E245.99929
G0 F9000 X147.2 Y150.1
G1 F1350 X147.2 Y84.9 E251.20384
G0 F9000 X148.8 Y84.9
G1 F1350 X148.8 Y150.1 E256.40838
G0 F9000 X150.4 Y150.1
G1 F1350 X150.4 Y84.9 E261.61293
G0 F9000 X152 Y84.9
G1 F1350 X152 Y150.1 E266.81748
G0 F9000 X153.6 Y150.025
G1 F1350 X153.6 Y84.974 E272.01013
G0 F9000 X155.2 Y85.724
G1 F1350 X155.2 Y149.277 E277.0832
G0 F9000 X156.8 Y147.074
G1 F1350 X156.8 Y87.924 E281.80481
G0 F9000 X158.4 Y89.609
G1 F1350 X158.4 Y145.399 E286.25821
G0 F300 X158.4 Y145.399 Z0.54
G0 F9000 X158.401 Y145.396
;TIME_ELAPSED:170.092461
;LAYER:-4
;TYPE:SUPPORT
G1 F1350 X158.275 Y145.548 E286.27791
G1 X97.628 Y84.9 E294.83593
G1 X96.213 Y84.9 E294.97712
G1 X157.55 Y146.236 E303.63236
G1 X157.12 Y146.662 E303.69276
G1 X156.875 Y146.976 E303.7325
G1 X94.799 Y84.9 E312.49209
G1 X93.385 Y84.9 E312.63318
G1 X156.329 Y147.844 E321.51526
G1 X156.156 Y148.165 E321.55164
G1 X155.977 Y148.449 E321.58514
G1 X155.861 Y148.606 E321.60462
G1 X155.778 Y148.707 E321.61766
G1 X91.971 Y84.9 E330.62152
G1 X90.557 Y84.9 E330.76261
G1 X155.046 Y149.389 E339.8627
G1 X154.933 Y149.476 E339.87693
G1 X154.807 Y149.556 E339.89182
G1 X154.502 Y149.724 E339.92657
G1 X154.338 Y149.799 E339.94456
G1 X154.123 Y149.881 E339.96752
G1 X89.142 Y84.9 E349.13704
G1 X87.728 Y84.9 E349.27813
G1 X152.925 Y150.097 E358.47813
G1 X152.855 Y150.099 E358.48512
G1 X151.513 Y150.098 E358.61903
G1 X86.314 Y84.9 E367.81924
G1 X84.9 Y84.9 E367.96033
G1 X150.098 Y150.098 E377.16047
G1 X148.684 Y150.098 E377.30156
G1 X83.485 Y84.9 E386.50177
G1 X83.251 Y84.899 E386.52512
G1 X83.077 Y84.903 E386.54249
G1 X82.72 Y84.919 E386.57815
G1 X82.474 Y84.939 E386.60277
G1 X82.365 Y84.953 E386.61374
G1 X82.154 Y84.982 E386.63499
G1 X147.27 Y150.098 E395.82356
G1 X145.856 Y150.098 E395.96465
G1 X81.021 Y85.264 E405.1135
G1 X80.941 Y85.29 E405.12189
G1 X80.668 Y85.366 E405.15017
G1 X80.56 Y85.401 E405.1615
G1 X80.494 Y85.426 E405.16854
G1 X80.185 Y85.557 E405.20203
G1 X79.992 Y85.649 E405.22336
G1 X144.442 Y150.098 E414.31788
G1 X143.027 Y150.098 E414.45907
G1 X79.091 Y86.162 E423.48113
G1 X79.051 Y86.188 E423.48589
G1 X78.643 Y86.487 E423.53636
G1 X78.486 Y86.614 E423.55651
G1 X78.297 Y86.782 E423.58174
G1 X141.613 Y150.098 E432.51632
G1 X140.199 Y150.098 E432.6574
G1 X77.629 Y87.528 E441.48671
G1 X77.479 Y87.761 E441.51436
G1 X77.339 Y88.02 E441.54373
G1 X77.297 Y88.106 E441.55328
G1 X77.25 Y88.218 E441.5654
G1 X77.157 Y88.471 E441.5923
G1 X138.785 Y150.098 E450.28861
G1 X137.371 Y150.098 E450.4297
G1 X76.953 Y89.681 E458.95526
G1 X76.951 Y89.743 E458.96145
G1 X76.953 Y91.095 E459.09635
G1 X135.956 Y150.098 E467.42231
G1 X134.542 Y150.098 E467.5634
G1 X76.954 Y92.51 E475.68969
G1 X76.956 Y93.927 E475.83108
G1 X133.128 Y150.098 E483.75748
G1 X131.714 Y150.098 E483.89857
G1 X76.957 Y95.342 E491.62531
G1 X76.959 Y96.758 E491.7666
G1 X130.299 Y150.098 E499.29345
G1 X128.885 Y150.098 E499.43454
G1 X76.96 Y98.173 E506.76171
G1 X76.96 Y99.587 E506.9028
G1 X127.471 Y150.098 E514.03045
G1 X126.057 Y150.098 E514.17154
G1 X76.96 Y101.001 E521.09966
G1 X76.96 Y102.415 E521.24075
G1 X124.643 Y150.098 E527.96933
G1 X123.228 Y150.098 E528.11052
G1 X76.96 Y103.83 E534.63944
G1 X76.96 Y105.244 E534.78053
G1 X121.814 Y150.098 E541.10991
G1 X120.4 Y150.098 E541.251
G1 X76.96 Y106.658 E547.38085
G1 X76.96 Y108.072 E547.52194
G1 X118.986 Y150.098 E553.45227
G1 X117.572 Y150.098 E553.59336
G1 X76.96 Y109.486 E559.32415
G1 X76.96 Y110.901 E559.46534
G1 X116.157 Y150.098 E564.99646
G1 X114.743 Y150.098 E565.13755
G1 X76.96 Y112.315 E570.46914
G1 X76.96 Y113.729 E570.61023
G1 X113.329 Y150.098 E575.74228
G1 X111.915 Y150.098 E575.88337
G1 X76.96 Y115.143 E580.8159
G1 X76.96 Y116.558 E580.95709
G1 X110.5 Y150.098 E585.68995
G1 X109.086 Y150.098 E585.83104
G1 X76.96 Y117.972 E590.36436
G1 X76.96 Y119.386 E590.50545
G1 X107.672 Y150.098 E594.83925
G1 X106.258 Y150.098 E594.98034
G1 X76.96 Y120.8 E599.1146
G1 X76.96 Y122.214 E599.25569
G1 X104.844 Y150.098 E603.19042
G1 X103.429 Y150.098 E603.33161
G1 X76.96 Y123.629 E607.06667
G1 X76.96 Y125.043 E607.20776
G1 X102.015 Y150.098 E610.7433
G1 X100.601 Y150.098 E610.88438
G1 X76.96 Y126.457 E614.22039
G1 X76.96 Y127.871 E614.36147
G1 X99.187 Y150.098 E617.49794
G1 X97.773 Y150.098 E617.63903
G1 X76.96 Y129.285 E620.57597
G1 X76.96 Y130.7 E620.71716
G1 X96.358 Y150.098 E623.45443
G1 X94.944 Y150.098 E623.59552
G1 X76.96 Y132.114 E626.13326
G1 X76.96 Y133.528 E626.27435
G1 X93.53 Y150.098 E628.61255
G1 X92.116 Y150.098 E628.75364
G1 X76.96 Y134.942 E630.89232
G1 X76.96 Y136.357 E631.03351
G1 X90.702 Y150.098 E632.97258
G1 X89.287 Y150.098 E633.11377
G1 X76.96 Y137.771 E634.85324
G1 X76.96 Y138.201 E634.89615
G1 X76.958 Y139.184 E634.99423
G1 X87.873 Y150.098 E636.53439
G1 X86.459 Y150.098 E636.67547
G1 X76.956 Y140.596 E638.01638
G1 X76.955 Y142.008 E638.15727
G1 X85.045 Y150.098 E639.29886
G1 X83.63 Y150.098 E639.44005
G1 X76.953 Y143.421 E640.38224
G1 X76.952 Y144.554 E640.49529
G1 X76.952 Y144.834 E640.52323
G1 X82.129 Y150.011 E641.25376
G1 X82.02 Y149.995 E641.26476
G1 X81.89 Y149.971 E641.27795
G1 X81.612 Y149.911 E641.30632
G1 X80.651 Y149.626 E641.40634
G1 X80.542 Y149.591 E641.41776
G1 X80.456 Y149.556 E641.42703
G1 X80.442 Y149.548 E641.42864
G1 X80.103 Y149.399 E641.46559
G1 X77.126 Y146.423 E641.8856
G0 F9000 X77.163 Y146.546
G1 F1350 X77.262 Y146.806 E641.91336
G1 X77.31 Y146.919 E641.92561
G1 X77.349 Y146.996 E641.93423
G1 X77.479 Y147.235 E641.96137
G1 X77.643 Y147.494 E641.99196
G1 X77.759 Y147.648 E642.0112
G1 X77.967 Y147.889 E642.04296
G1 X78.171 Y148.098 E642.0721
G1 X78.285 Y148.207 E642.08784
G1 X78.503 Y148.398 E642.11676
G1 X78.664 Y148.526 E642.13729
G1 X79.07 Y148.823 E642.18748
G1 X79.241 Y148.935 E642.20787
G1 X79.497 Y149.088 E642.23763
G1 X79.608 Y149.15 E642.25032
G1 X79.803 Y149.253 E642.27232
G1 X79.919 Y149.313 E642.28536
G1 X80.101 Y149.398 E642.3054
G1 F2400 E636.3054
G0 F9000 X79.673 Y150.375
G0 X78.463 Y149.698
G0 X77.42 Y148.854
G0 X76.767 Y148.097
G0 X76.272 Y147.196
G0 X75.985 Y146.263
G0 X75.889 Y145.281
G0 X75.917 Y89.196
G0 X76.144 Y88.145
G0 X76.565 Y87.217
G0 X77.182 Y86.386
G0 X78.002 Y85.638
G0 X79.068 Y84.93
G0 X80.353 Y84.35
G0 X81.899 Y83.944
G0 X83.236 Y83.835
G0 X153.383 Y83.867
G0 X154.218 Y84.047
G0 X155.02 Y84.343
G0 X154.651 Y85.354
G1 F2400 E642.3054
G1 F1350 X154.542 Y85.295 E642.31777
G1 X154.251 Y85.163 E642.34965
G1 X154.082 Y85.101 E642.36761
G1 X153.766 Y85.009 E642.40045
G1 X153.581 Y84.969 E642.41934
G1 X153.271 Y84.926 E642.45056
G1 X153.016 Y84.907 E642.47608
G1 X152.806 Y84.9 E642.49704
G1 X152.782 Y84.9 E642.49944
G1 X159.121 Y91.239 E643.39394
G1 X159.152 Y91.46 E643.41621
G1 X159.173 Y91.678 E643.43806
G1 X159.179 Y91.841 E643.45434
G1 X159.179 Y92.711 E643.54115
G1 X151.368 Y84.9 E644.64336
G1 X149.954 Y84.9 E644.78445
G1 X159.179 Y94.125 E646.0862
G1 X159.179 Y95.54 E646.22739
G1 X148.539 Y84.9 E647.72881
G1 X147.125 Y84.9 E647.8699
G1 X159.179 Y96.954 E649.57085
G1 X159.179 Y98.368 E649.71193
G1 X145.711 Y84.9 E651.61242
G1 X144.297 Y84.9 E651.7535
G1 X159.179 Y99.782 E653.85352
G1 X159.179 Y101.196 E653.99461
G1 X142.882 Y84.9 E656.29422
G1 X141.468 Y84.9 E656.43531
G1 X159.179 Y102.611 E658.93452
G1 X159.179 Y104.025 E659.07561
G1 X140.054 Y84.9 E661.77435
G1 X138.64 Y84.9 E661.91544
G1 X159.179 Y105.439 E664.81372
G1 X159.179 Y106.853 E664.95481
G1 X137.226 Y84.9 E668.05261
G1 X135.811 Y84.9 E668.1938
G1 X159.179 Y108.267 E671.49121
G1 X159.179 Y109.682 E671.6324
G1 X134.397 Y84.9 E675.12941
G1 X132.983 Y84.9 E675.2705
G1 X159.179 Y111.096 E678.96703
G1 X159.179 Y112.51 E679.10812
G1 X131.569 Y84.9 E683.00419
G1 X130.155 Y84.9 E683.14528
G1 X159.179 Y113.924 E687.24088
G1 X159.179 Y115.339 E687.38207
G1 X128.74 Y84.9 E691.67734
G1 X127.326 Y84.9 E691.81843
G1 X159.179 Y116.753 E696.31324
G1 X159.179 Y118.167 E696.45432
G1 X125.912 Y84.9 E701.14866
G1 X124.498 Y84.9 E701.28975
G1 X159.179 Y119.581 E706.18361
G1 X159.179 Y120.995 E706.3247
G1 X123.083 Y84.9 E711.41817
G1 X121.669 Y84.9 E711.55925
G1 X159.179 Y122.41 E716.85232
G1 X159.179 Y123.824 E716.99341
G1 X120.255 Y84.9 E722.48601
G1 X118.841 Y84.9 E722.6271
G1 X159.179 Y125.238 E728.31922
G1 X159.179 Y126.652 E728.46031
G1 X117.427 Y84.9 E734.35197
G1 X116.012 Y84.9 E734.49316
G1 X159.179 Y128.066 E740.58442
G1 X159.179 Y129.481 E740.72561
G1 X114.598 Y84.9 E747.01647
G1 X113.184 Y84.9 E747.15756
