;FLAVOR:Marlin
;TIME:957
;Filament used: 0.716565m
;Layer height: 0.2
;MINX:103.701
;MINY:103.701
;MINZ:0.2
;MAXX:131.299
;MAXY:131.299
;MAXZ:13.8
;Generated with Cura_SteamEngine 4.10.0
M140 S60
M105
M190 S60
M104 S220
M105
M109 S220
M82 ;absolute extrusion mode
; Ender 3 Custom Start G-code
G92 E0 ; Reset Extruder
G28 ; Home all axes
G1 Z2.0 F3000 ; Move Z Axis up little to prevent scratching of Heat Bed
G1 X0.1 Y20 Z0.3 F5000.0 ; Move to start position
G1 X0.1 Y200.0 Z0.3 F1500.0 E15 ; Draw the first line
G1 X0.4 Y200.0 Z0.3 F5000.0 ; Move to side a little
G1 X0.4 Y20 Z0.3 F1500.0 E30 ; Draw the second line
G92 E0 ; Reset Extruder
G1 Z2.0 F3000 ; Move Z Axis up little to prevent scratching of Heat Bed
G1 X5 Y20 Z0.3 F5000.0 ; Move over to prevent blob squish
G92 E0
G92 E0
G1 F3000 E-5
;LAYER_COUNT:69
;LAYER:0
M106 S63.8
;MESH:SA Motor Declination Bracket Polar Scope Illuminator.stl
G0 F6000 X117.267 Y130.598 Z0.2
;TYPE:WALL-INNER
G1 F3000 E0
G1 F1200 X117.604 Y130.598 E0.01121
G1 X117.745 Y130.598 E0.0159
G1 X118.063 Y130.587 E0.02648
G1 X118.224 Y130.58 E0.03184
G1 X118.511 Y130.559 E0.04141
G1 X118.701 Y130.545 E0.04775
G1 X118.958 Y130.517 E0.05635
G1 X119.178 Y130.492 E0.06371
G1 X119.399 Y130.46 E0.07114
G1 X119.65 Y130.422 E0.07958
G1 X119.857 Y130.385 E0.08658
G1 X120.121 Y130.336 E0.09551
G1 X120.298 Y130.297 E0.10154
G1 X120.587 Y130.231 E0.11139
G1 X120.732 Y130.194 E0.11637
G1 X121.051 Y130.11 E0.12734
G1 X121.167 Y130.075 E0.13137
G1 X121.508 Y129.971 E0.14323
G1 X121.599 Y129.941 E0.14642
G1 X121.961 Y129.817 E0.15915
G1 X122.039 Y129.787 E0.16192
G1 X122.409 Y129.646 E0.17509
G1 X122.46 Y129.625 E0.17693
G1 X122.849 Y129.458 E0.19101
G1 X123.282 Y129.255 E0.20691
G1 X123.689 Y129.046 E0.22213
G1 X123.709 Y129.036 E0.22288
G1 X124.088 Y128.822 E0.23735
G1 X124.124 Y128.802 E0.23872
G1 X124.474 Y128.589 E0.25235
G1 X124.534 Y128.552 E0.25469
G1 X124.844 Y128.345 E0.26709
G1 X124.931 Y128.287 E0.27057
G1 X125.217 Y128.083 E0.28225
G1 X125.32 Y128.01 E0.28645
G1 X125.572 Y127.816 E0.29703
G1 X125.7 Y127.717 E0.30241
G1 X125.932 Y127.523 E0.31247
G1 X126.068 Y127.41 E0.31835
G1 X126.263 Y127.235 E0.32707
G1 X126.424 Y127.091 E0.33425
G1 X126.602 Y126.918 E0.34251
G1 X126.768 Y126.758 E0.35017
G1 X126.908 Y126.613 E0.35688
G1 X127.1 Y126.413 E0.3661
G1 X127.229 Y126.268 E0.37255
G1 X127.418 Y126.057 E0.38198
G1 X127.527 Y125.926 E0.38764
G1 X127.725 Y125.69 E0.39789
G1 X127.799 Y125.594 E0.40192
G1 X128.018 Y125.31 E0.41385
G1 X128.083 Y125.219 E0.41757
G1 X128.295 Y124.92 E0.42976
G1 X128.344 Y124.847 E0.43268
G1 X128.559 Y124.523 E0.44562
G1 X128.588 Y124.474 E0.44751
G1 X128.808 Y124.113 E0.46157
G1 X128.821 Y124.089 E0.46248
G1 X129.042 Y123.696 E0.47748
G1 X129.261 Y123.27 E0.49341
G1 X129.447 Y122.87 E0.50808
G1 X129.463 Y122.836 E0.50933
G1 X129.625 Y122.455 E0.5231
G1 X129.65 Y122.397 E0.5252
G1 X129.781 Y122.052 E0.53747
G1 X129.821 Y121.949 E0.54115
G1 X129.938 Y121.606 E0.5532
G1 X129.976 Y121.496 E0.55707
G1 X130.071 Y121.175 E0.56821
G1 X130.113 Y121.037 E0.57301
G1 X130.19 Y120.74 E0.58321
G1 X130.233 Y120.575 E0.58888
G1 X130.292 Y120.312 E0.59785
G1 X130.338 Y120.109 E0.60477
G1 X130.381 Y119.871 E0.61281
G1 X130.424 Y119.637 E0.62073
G1 X130.456 Y119.413 E0.62825
G1 X130.493 Y119.164 E0.63663
G1 X130.514 Y118.966 E0.64325
G1 X130.545 Y118.689 E0.65252
G1 X130.557 Y118.521 E0.65812
G1 X130.58 Y118.212 E0.66843
G1 X130.585 Y118.078 E0.67289
G1 X130.598 Y117.733 E0.68437
G1 X130.598 Y117.613 E0.68836
G1 X130.598 Y117.255 E0.70027
G1 X130.596 Y117.177 E0.70286
G1 X130.58 Y116.776 E0.71621
G1 X130.576 Y116.711 E0.71838
G1 X130.545 Y116.299 E0.73212
G1 X130.542 Y116.266 E0.73322
G1 X130.492 Y115.822 E0.74808
G1 X130.422 Y115.35 E0.76395
G1 X130.344 Y114.921 E0.77845
G1 X130.336 Y114.879 E0.77988
G1 X130.245 Y114.476 E0.79362
G1 X130.231 Y114.413 E0.79576
G1 X130.132 Y114.031 E0.80889
G1 X130.11 Y113.949 E0.81171
G1 X130.008 Y113.611 E0.82346
G1 X129.971 Y113.492 E0.8276
G1 X129.861 Y113.168 E0.83898
G1 X129.817 Y113.039 E0.84351
G1 X129.705 Y112.745 E0.85398
G1 X129.646 Y112.591 E0.85946
G1 X129.536 Y112.333 E0.86879
G1 X129.458 Y112.151 E0.87538
G1 X129.348 Y111.915 E0.88404
G1 X129.255 Y111.718 E0.89128
G1 X129.155 Y111.522 E0.8986
G1 X129.036 Y111.291 E0.90725
G1 X128.94 Y111.12 E0.91377
G1 X128.802 Y110.876 E0.92309
G1 X128.709 Y110.723 E0.92905
G1 X128.552 Y110.466 E0.93906
G1 X128.472 Y110.346 E0.94386
G1 X128.287 Y110.069 E0.95494
G1 X128.214 Y109.966 E0.95914
G1 X128.01 Y109.68 E0.97082
G1 X127.957 Y109.611 E0.97372
G1 X127.717 Y109.3 E0.98678
G1 X127.676 Y109.251 E0.98891
G1 X127.41 Y108.932 E1.00272
G1 X127.39 Y108.91 E1.00371
G1 X127.091 Y108.576 E1.01862
G1 X126.758 Y108.232 E1.03454
G1 X126.442 Y107.928 E1.04913
G1 X126.413 Y107.9 E1.05047
G1 X126.1 Y107.621 E1.06441
G1 X126.057 Y107.582 E1.06635
G1 X125.758 Y107.332 E1.07931
G1 X125.69 Y107.275 E1.08226
G1 X125.412 Y107.061 E1.09393
G1 X125.31 Y106.982 E1.09822
G1 X125.03 Y106.783 E1.10964
G1 X124.92 Y106.705 E1.11413
G1 X124.659 Y106.532 E1.12454
G1 X124.523 Y106.441 E1.12999
G1 X124.291 Y106.3 E1.13902
G1 X124.113 Y106.192 E1.14594
G1 X123.881 Y106.062 E1.15479
G1 X123.696 Y105.958 E1.16185
G1 X123.496 Y105.856 E1.16931
G1 X123.27 Y105.739 E1.17778
G1 X123.085 Y105.653 E1.18456
G1 X122.836 Y105.537 E1.1937
G1 X122.673 Y105.468 E1.19959
G1 X122.397 Y105.35 E1.20957
G1 X122.255 Y105.296 E1.21462
G1 X121.949 Y105.179 E1.22552
G1 X121.838 Y105.141 E1.22942
G1 X121.496 Y105.024 E1.24144
G1 X121.396 Y104.995 E1.24491
G1 X121.037 Y104.887 E1.25738
G1 X120.97 Y104.87 E1.25967
G1 X120.575 Y104.767 E1.27325
G1 X120.539 Y104.759 E1.27448
G1 X120.109 Y104.662 E1.28914
G1 X120.094 Y104.66 E1.28964
G1 X119.637 Y104.576 E1.3051
G1 X119.19 Y104.511 E1.32012
G1 X119.164 Y104.507 E1.321
G1 X118.749 Y104.462 E1.33488
G1 X118.689 Y104.455 E1.33689
G1 X118.301 Y104.427 E1.34983
G1 X118.212 Y104.42 E1.3528
G1 X117.832 Y104.406 E1.36544
G1 X117.733 Y104.402 E1.36874
G1 X117.396 Y104.402 E1.37995
G1 X117.255 Y104.402 E1.38464
G1 X116.937 Y104.413 E1.39522
G1 X116.776 Y104.42 E1.40058
G1 X116.489 Y104.441 E1.41015
G1 X116.299 Y104.455 E1.41649
G1 X116.042 Y104.483 E1.42509
G1 X115.822 Y104.508 E1.43245
G1 X115.601 Y104.54 E1.43988
G1 X115.35 Y104.578 E1.44832
G1 X115.143 Y104.615 E1.45532
G1 X114.879 Y104.664 E1.46425
G1 X114.702 Y104.703 E1.47027
G1 X114.413 Y104.769 E1.48013
G1 X114.266 Y104.807 E1.48518
G1 X113.949 Y104.89 E1.49608
G1 X113.835 Y104.924 E1.50004
G1 X113.492 Y105.029 E1.51197
G1 X113.4 Y105.06 E1.5152
G1 X113.039 Y105.183 E1.52788
G1 X112.961 Y105.213 E1.53066
G1 X112.591 Y105.354 E1.54383
G1 X112.54 Y105.375 E1.54567
G1 X112.151 Y105.542 E1.55975
G1 X111.718 Y105.745 E1.57565
G1 X111.311 Y105.954 E1.59087
G1 X111.291 Y105.964 E1.59161
G1 X110.912 Y106.178 E1.60609
G1 X110.876 Y106.198 E1.60746
G1 X110.526 Y106.411 E1.62109
G1 X110.466 Y106.448 E1.62343
G1 X110.16 Y106.652 E1.63566
G1 X110.069 Y106.713 E1.63931
G1 X109.783 Y106.917 E1.65099
G1 X109.68 Y106.99 E1.65519
G1 X109.428 Y107.184 E1.66577
G1 X109.3 Y107.283 E1.67115
G1 X109.068 Y107.477 E1.68121
G1 X108.932 Y107.59 E1.68709
G1 X108.737 Y107.765 E1.69581
G1 X108.576 Y107.909 E1.70299
G1 X108.398 Y108.082 E1.71125
G1 X108.232 Y108.242 E1.71891
G1 X108.092 Y108.387 E1.72562
G1 X107.9 Y108.587 E1.73484
G1 X107.771 Y108.732 E1.74129
G1 X107.582 Y108.943 E1.75072
G1 X107.473 Y109.074 E1.75638
G1 X107.275 Y109.31 E1.76663
G1 X107.2 Y109.407 E1.77071
G1 X106.982 Y109.69 E1.78259
G1 X106.917 Y109.781 E1.78631
G1 X106.705 Y110.08 E1.7985
G1 X106.656 Y110.153 E1.80142
G1 X106.441 Y110.477 E1.81436
G1 X106.412 Y110.526 E1.81625
G1 X106.192 Y110.887 E1.83031
G1 X106.179 Y110.911 E1.83122
G1 X105.958 Y111.304 E1.84622
G1 X105.739 Y111.73 E1.86215
G1 X105.553 Y112.13 E1.87682
G1 X105.537 Y112.164 E1.87807
G1 X105.375 Y112.545 E1.89184
G1 X105.35 Y112.603 E1.89394
G1 X105.219 Y112.948 E1.90621
G1 X105.179 Y113.051 E1.90989
G1 X105.062 Y113.394 E1.92194
G1 X105.024 Y113.504 E1.92581
G1 X104.929 Y113.825 E1.93695
G1 X104.887 Y113.963 E1.94175
G1 X104.81 Y114.26 E1.95195
G1 X104.767 Y114.425 E1.95762
G1 X104.708 Y114.688 E1.96659
G1 X104.662 Y114.891 E1.97351
G1 X104.619 Y115.128 E1.98152
G1 X104.576 Y115.363 E1.98947
G1 X104.544 Y115.587 E1.99699
G1 X104.507 Y115.836 E2.00536
G1 X104.486 Y116.034 E2.01199
G1 X104.455 Y116.311 E2.02126
G1 X104.443 Y116.479 E2.02686
G1 X104.42 Y116.788 E2.03717
G1 X104.415 Y116.922 E2.04163
G1 X104.402 Y117.267 E2.05311
G1 X104.402 Y117.387 E2.0571
G1 X104.402 Y117.745 E2.06901
G1 X104.404 Y117.817 E2.0714
G1 X104.42 Y118.224 E2.08495
G1 X104.423 Y118.277 E2.08672
G1 X104.455 Y118.701 E2.10086
G1 X104.457 Y118.719 E2.10146
G1 X104.508 Y119.178 E2.11682
G1 X104.576 Y119.64 E2.13235
G1 X104.578 Y119.65 E2.13269
G1 X104.656 Y120.079 E2.14719
G1 X104.664 Y120.121 E2.14862
G1 X104.751 Y120.511 E2.16191
G1 X104.769 Y120.587 E2.1645
G1 X104.866 Y120.961 E2.17735
G1 X104.89 Y121.051 E2.18045
G1 X104.99 Y121.382 E2.19195
G1 X105.029 Y121.508 E2.19634
G1 X105.137 Y121.826 E2.20751
G1 X105.183 Y121.961 E2.21225
G1 X105.287 Y122.235 E2.222
G1 X105.354 Y122.409 E2.2282
G1 X105.459 Y122.655 E2.2371
G1 X105.542 Y122.849 E2.24412
G1 X105.646 Y123.072 E2.2523
G1 X105.745 Y123.282 E2.26002
G1 X105.842 Y123.472 E2.26712
G1 X105.964 Y123.709 E2.27598
G1 X106.06 Y123.88 E2.28251
G1 X106.198 Y124.124 E2.29183
G1 X106.285 Y124.267 E2.2974
G1 X106.448 Y124.534 E2.3078
G1 X106.52 Y124.642 E2.31212
G1 X106.713 Y124.931 E2.32368
G1 X106.774 Y125.017 E2.32718
G1 X106.99 Y125.32 E2.33956
G1 X107.043 Y125.389 E2.34246
G1 X107.283 Y125.7 E2.35552
G1 X107.324 Y125.749 E2.35765
G1 X107.59 Y126.068 E2.37146
G1 X107.61 Y126.09 E2.37245
G1 X107.909 Y126.424 E2.38736
G1 X108.242 Y126.768 E2.40328
G1 X108.558 Y127.072 E2.41787
G1 X108.587 Y127.1 E2.41921
G1 X108.9 Y127.379 E2.43315
G1 X108.943 Y127.418 E2.43509
G1 X109.242 Y127.668 E2.44805
G1 X109.31 Y127.725 E2.451
G1 X109.588 Y127.939 E2.46267
G1 X109.69 Y128.018 E2.46696
G1 X109.96 Y128.21 E2.47798
G1 X110.08 Y128.295 E2.48287
G1 X110.341 Y128.468 E2.49328
G1 X110.477 Y128.559 E2.49873
G1 X110.709 Y128.7 E2.50776
G1 X110.887 Y128.808 E2.51468
G1 X111.119 Y128.938 E2.52353
G1 X111.304 Y129.042 E2.53058
G1 X111.498 Y129.141 E2.53783
G1 X111.73 Y129.261 E2.54652
G1 X111.911 Y129.345 E2.55315
G1 X112.164 Y129.463 E2.56244
G1 X112.325 Y129.531 E2.56825
G1 X112.603 Y129.65 E2.57831
G1 X112.745 Y129.704 E2.58336
G1 X113.051 Y129.821 E2.59426
G1 X113.161 Y129.858 E2.59812
G1 X113.504 Y129.976 E2.61018
G1 X113.591 Y130.002 E2.6132
G1 X113.963 Y130.113 E2.62611
G1 X114.031 Y130.13 E2.62845
G1 X114.425 Y130.233 E2.64199
G1 X114.461 Y130.241 E2.64322
G1 X114.891 Y130.338 E2.65788
G1 X114.906 Y130.34 E2.65838
G1 X115.363 Y130.424 E2.67384
G1 X115.81 Y130.489 E2.68886
G1 X115.836 Y130.493 E2.68973
G1 X116.251 Y130.538 E2.70362
G1 X116.311 Y130.545 E2.70563
G1 X116.699 Y130.573 E2.71857
G1 X116.788 Y130.58 E2.72154
G1 X117.168 Y130.594 E2.73418
G1 X117.267 Y130.598 E2.73748
G0 F6000 X117.274 Y130.198
;TYPE:WALL-OUTER
G1 F1200 X117.738 Y130.198 E2.75291
G1 X118.202 Y130.181 E2.76835
G1 X118.664 Y130.147 E2.78376
G1 X119.126 Y130.095 E2.79923
G1 X119.585 Y130.027 E2.81466
G1 X120.041 Y129.944 E2.83007
G1 X120.493 Y129.842 E2.84549
G1 X120.942 Y129.725 E2.86092
G1 X121.386 Y129.59 E2.87635
G1 X121.825 Y129.441 E2.89177
G1 X122.259 Y129.275 E2.90723
G1 X122.686 Y129.093 E2.92267
G1 X123.106 Y128.896 E2.9381
G1 X123.519 Y128.684 E2.95354
G1 X123.922 Y128.457 E2.96892
G1 X124.319 Y128.215 E2.98438
G1 X124.704 Y127.958 E2.99978
G1 X125.082 Y127.689 E3.01521
G1 X125.449 Y127.405 E3.03065
G1 X125.806 Y127.107 E3.04611
G1 X126.151 Y126.798 E3.06152
G1 X126.485 Y126.475 E3.07697
G1 X126.807 Y126.141 E3.0924
G1 X127.115 Y125.796 E3.10778
G1 X127.413 Y125.439 E3.12325
G1 X127.697 Y125.072 E3.13868
G1 X127.965 Y124.694 E3.1541
G1 X128.221 Y124.308 E3.1695
G1 X128.463 Y123.911 E3.18497
G1 X128.69 Y123.507 E3.20038
G1 X128.902 Y123.094 E3.21582
G1 X129.098 Y122.673 E3.23126
G1 X129.279 Y122.247 E3.24666
G1 X129.445 Y121.813 E3.26211
G1 X129.595 Y121.374 E3.27754
G1 X129.728 Y120.93 E3.29296
G1 X129.844 Y120.481 E3.30838
G1 X129.946 Y120.029 E3.3238
G1 X130.029 Y119.572 E3.33924
G1 X130.096 Y119.113 E3.35467
G1 X130.147 Y118.652 E3.3701
G1 X130.181 Y118.19 E3.38551
G1 X130.198 Y117.726 E3.40095
G1 X130.198 Y117.262 E3.41638
G1 X130.181 Y116.798 E3.43183
G1 X130.147 Y116.336 E3.44723
G1 X130.095 Y115.874 E3.4627
G1 X130.027 Y115.415 E3.47813
G1 X129.944 Y114.959 E3.49355
G1 X129.842 Y114.507 E3.50896
G1 X129.725 Y114.058 E3.52439
G1 X129.59 Y113.614 E3.53982
G1 X129.441 Y113.175 E3.55524
G1 X129.275 Y112.741 E3.5707
G1 X129.093 Y112.314 E3.58614
G1 X128.896 Y111.894 E3.60157
G1 X128.684 Y111.481 E3.61701
G1 X128.457 Y111.078 E3.63239
G1 X128.215 Y110.681 E3.64785
G1 X127.958 Y110.296 E3.66325
G1 X127.689 Y109.918 E3.67868
G1 X127.405 Y109.551 E3.69412
G1 X127.107 Y109.194 E3.70958
G1 X126.798 Y108.849 E3.72499
G1 X126.475 Y108.515 E3.74044
G1 X126.141 Y108.193 E3.75587
G1 X125.796 Y107.885 E3.77125
G1 X125.439 Y107.587 E3.78672
G1 X125.072 Y107.303 E3.80216
G1 X124.694 Y107.035 E3.81757
G1 X124.308 Y106.779 E3.83297
G1 X123.911 Y106.537 E3.84844
G1 X123.507 Y106.31 E3.86385
G1 X123.094 Y106.098 E3.87929
G1 X122.673 Y105.902 E3.89474
G1 X122.247 Y105.721 E3.91013
G1 X121.813 Y105.555 E3.92559
G1 X121.374 Y105.405 E3.94102
G1 X120.93 Y105.272 E3.95643
G1 X120.481 Y105.156 E3.97186
G1 X120.029 Y105.054 E3.98727
G1 X119.572 Y104.971 E4.00272
G1 X119.113 Y104.904 E4.01814
G1 X118.652 Y104.853 E4.03357
G1 X118.19 Y104.819 E4.04898
G1 X117.726 Y104.802 E4.06442
G1 X117.262 Y104.802 E4.07985
G1 X116.798 Y104.819 E4.0953
G1 X116.336 Y104.853 E4.1107
G1 X115.874 Y104.905 E4.12617
G1 X115.415 Y104.973 E4.1416
G1 X114.959 Y105.056 E4.15702
G1 X114.507 Y105.158 E4.17243
G1 X114.058 Y105.275 E4.18786
G1 X113.614 Y105.41 E4.2033
G1 X113.175 Y105.559 E4.21871
G1 X112.741 Y105.725 E4.23417
G1 X112.314 Y105.907 E4.24961
G1 X111.894 Y106.104 E4.26504
G1 X111.481 Y106.316 E4.28048
G1 X111.078 Y106.543 E4.29586
G1 X110.681 Y106.785 E4.31133
G1 X110.296 Y107.042 E4.32672
G1 X109.918 Y107.311 E4.34215
G1 X109.551 Y107.595 E4.35759
G1 X109.194 Y107.893 E4.37305
G1 X108.849 Y108.202 E4.38846
G1 X108.515 Y108.525 E4.40391
G1 X108.193 Y108.859 E4.41934
G1 X107.885 Y109.204 E4.43473
G1 X107.587 Y109.561 E4.45019
G1 X107.303 Y109.928 E4.46563
G1 X107.035 Y110.306 E4.48104
G1 X106.779 Y110.692 E4.49644
G1 X106.537 Y111.089 E4.51191
G1 X106.31 Y111.493 E4.52732
G1 X106.098 Y111.906 E4.54276
G1 X105.902 Y112.327 E4.55821
G1 X105.721 Y112.753 E4.5736
G1 X105.555 Y113.187 E4.58906
G1 X105.405 Y113.626 E4.60449
G1 X105.272 Y114.07 E4.6199
G1 X105.156 Y114.519 E4.63533
G1 X105.054 Y114.971 E4.65074
G1 X104.971 Y115.428 E4.66619
G1 X104.904 Y115.887 E4.68161
G1 X104.853 Y116.348 E4.69704
G1 X104.819 Y116.81 E4.71245
G1 X104.802 Y117.274 E4.72789
G1 X104.802 Y117.738 E4.74332
G1 X104.819 Y118.202 E4.75877
G1 X104.853 Y118.664 E4.77418
G1 X104.905 Y119.126 E4.78964
G1 X104.973 Y119.585 E4.80507
G1 X105.056 Y120.041 E4.82049
G1 X105.158 Y120.493 E4.8359
G1 X105.275 Y120.942 E4.85133
G1 X105.41 Y121.386 E4.86677
G1 X105.559 Y121.825 E4.88219
G1 X105.725 Y122.259 E4.89764
G1 X105.907 Y122.686 E4.91308
G1 X106.104 Y123.106 E4.92851
G1 X106.316 Y123.519 E4.94395
G1 X106.543 Y123.922 E4.95933
G1 X106.785 Y124.319 E4.9748
G1 X107.042 Y124.704 E4.99019
G1 X107.311 Y125.082 E5.00562
G1 X107.595 Y125.449 E5.02106
G1 X107.893 Y125.806 E5.03653
G1 X108.202 Y126.151 E5.05193
